; generated by PrusaSlicer 2.6.1+win64 on 2024-04-03 at 22:40:24 UTC


;
;

;
;

;
;
; 

; external perimeters extrusion width = 0.45mm
; perimeters extrusion width = 0.45mm
; infill extrusion width = 0.45mm
; solid infill extrusion width = 0.45mm
; top infill extrusion width = 0.42mm
; first layer extrusion width = 0.50mm

; external perimeters extrusion width = 0.45mm
; perimeters extrusion width = 0.45mm
; infill extrusion width = 0.45mm
; solid infill extrusion width = 0.45mm
; top infill extrusion width = 0.42mm
; first layer extrusion width = 0.50mm

M73 P0 R105
M201 X2500 Y2500 Z200 E2500 ; sets maximum accelerations, mm/sec^2
M203 X200 Y200 Z40 E100 ; sets maximum feedrates, mm / sec
M204 P2000 R1200 T2000 ; sets acceleration (P, T) and retract acceleration (R), mm/sec^2
M205 X8.00 Y8.00 Z2.00 E10.00 ; sets the jerk limits, mm/sec
M205 S0 T0 ; sets the minimum extruding and travel feed rate, mm/sec
;TYPE:Custom
M17 ; enable steppers
M862.3 P "MK4" ; printer model check
M862.1 P0.4 ; nozzle diameter check
M555 X92.5 Y59 W65 H88

G90 ; use absolute coordinates
M83 ; extruder relative mode

M140 S60 ; set bed temp

M104 S170 ; set extruder temp for bed leveling
M109 R170 ; wait for temp


M84 E ; turn off E motor

G28 ; home all without mesh bed level

G1 X42 Y-4 Z5 F4800

M302 S160 ; lower cold extrusion limit to 160C


G1 E-2 F2400 ; retraction


M84 E ; turn off E motor

G29 P9 X10 Y-4 W32 H4

M106 S100

G0 Z40 F10000

M190 S60 ; wait for bed temp

M107

;
; MBL
;
M84 E ; turn off E motor
G29 P1 ; invalidate mbl & probe print area
G29 P1 X0 Y0 W50 H20 C ; probe near purge place
G29 P3.2 ; interpolate mbl probes
G29 P3.13 ; extrapolate mbl outside probe area
G29 A ; activate mbl

; prepare for purge
M104 S215
G0 X0 Y-4 Z15 F4800 ; move away and ready for the purge
M109 S215

G92 E0
M569 S0 E ; set spreadcycle mode for extruder

;
; Extrude purge line
;
G92 E0 ; reset extruder position
G1 E2 F2400 ; deretraction after the initial one before nozzle cleaning
G0 E7 X15 Z0.2 F500 ; purge
G0 X25 E4 F500 ; purge
G0 X35 E4 F650 ; purge
G0 X45 E4 F800 ; purge
G0 X48 Z0.05 F8000 ; wipe, move close to the bed
G0 X51 Z0.2 F8000 ; wipe, move quickly away from the bed

G92 E0
M221 S100 ; set flow to 100%
G21 ; set units to millimeters
G90 ; use absolute coordinates
M83 ; use relative distances for extrusion
M900 K0.05 ; Filament gcode



M142 S36 ; set heatbreak target temp
M107
;LAYER_CHANGE
;Z:0.2
;HEIGHT:0.2
;BEFORE_LAYER_CHANGE
G92 E0.0
;0.2


G1 E-.8 F2100
M73 P0 R104
G1 Z.2 F720
;AFTER_LAYER_CHANGE
;0.2
; printing object output_top.stl id:1 copy 0
G1 Z.4
G1 X156.592 Y143.855 F12000
G1 Z.2 F720
G1 E.8 F1500
M204 P600
;TYPE:Perimeter
;WIDTH:0.499999
G1 F1200
G1 X156.548 Y144.407 E.02105
G1 X156.43 Y144.799 E.01556
G1 X156.237 Y145.16 E.01556
G1 X155.977 Y145.477 E.01558
G1 X155.66 Y145.737 E.01558
G1 X155.299 Y145.93 E.01556
G1 X154.907 Y146.048 E.01556
G1 X154.455 Y146.093 E.01726
G1 X135.655 Y146.093 E.71452
G1 X135.093 Y146.048 E.02143
G1 X134.701 Y145.93 E.01556
G1 X134.34 Y145.737 E.01556
G1 X134.023 Y145.477 E.01558
G1 X133.763 Y145.16 E.01558
G1 X133.57 Y144.799 E.01556
G1 X133.452 Y144.407 E.01556
G1 X133.407 Y143.955 E.01726
G1 X133.407 Y66.155 E2.95689
G1 X133.451 Y65.597 E.02127
G1 X133.532 Y65.343 E.01013
G1 X133.763 Y64.84 E.02104
G1 X134.023 Y64.523 E.01558
G1 X134.34 Y64.263 E.01558
G1 X134.701 Y64.07 E.01556
G1 X135.093 Y63.952 E.01556
G1 X135.544 Y63.907 E.01723
G1 X154.397 Y63.912 E.71653
G1 X154.907 Y63.952 E.01944
G1 X155.299 Y64.07 E.01556
G1 X155.66 Y64.263 E.01556
G1 X155.977 Y64.523 E.01558
G1 X156.237 Y64.84 E.01558
G1 X156.43 Y65.201 E.01556
G1 X156.548 Y65.593 E.01556
G1 X156.593 Y66.155 E.02143
G1 X156.593 Y143.795 E2.95081
M204 P1000
G1 X157.05 Y143.874 F12000
M204 P600
;TYPE:External perimeter
G1 F1200
G1 X156.999 Y144.497 E.02376
G1 X156.854 Y144.975 E.01898
G1 X156.618 Y145.415 E.01898
G1 X156.302 Y145.802 E.01899
G1 X155.915 Y146.118 E.01899
G1 X155.475 Y146.354 E.01898
G1 X154.997 Y146.499 E.01898
G1 X154.478 Y146.55 E.01982
G1 X135.522 Y146.55 E.72045
G1 X135.003 Y146.499 E.01982
G1 X134.525 Y146.354 E.01898
G1 X134.085 Y146.118 E.01898
G1 X133.698 Y145.802 E.01899
G1 X133.382 Y145.415 E.01899
G1 X133.146 Y144.975 E.01898
G1 X133.001 Y144.497 E.01898
G1 X132.95 Y143.978 E.01982
G1 X132.95 Y66.022 E2.96282
G1 X133.001 Y65.505 E.01974
G1 X133.164 Y64.992 E.02046
G1 X133.382 Y64.585 E.01755
G1 X133.698 Y64.198 E.01899
G1 X134.085 Y63.882 E.01899
G1 X134.525 Y63.646 E.01898
G1 X135.003 Y63.501 E.01898
G1 X135.522 Y63.45 E.01982
G1 X154.397 Y63.455 E.71737
G1 X154.997 Y63.501 E.02287
G1 X155.475 Y63.646 E.01898
G1 X155.915 Y63.882 E.01898
G1 X156.302 Y64.198 E.01899
G1 X156.618 Y64.585 E.01899
G1 X156.854 Y65.025 E.01898
G1 X156.999 Y65.503 E.01898
G1 X157.05 Y66.155 E.02486
G1 X157.05 Y143.814 E2.95153
M204 P1000
G1 X156.693 Y144.054 F12000
G1 E-.64 F2100
;WIPE_START
G1 F9600
G1 X156.999 Y144.497 E-.14233
G1 X156.974 Y144.578 E-.01767
;WIPE_END
G1 Z.4 F720
G1 X156.387 Y66.166 F12000
G1 Z.2 F720
G1 E.8 F1500
M204 P600
;TYPE:Solid infill
;WIDTH:0.501141
G1 F1200
G1 X154.552 Y64.33 E.0989
G1 X153.897 Y64.323 E.02496
G1 X156.182 Y66.608 E.12312
G1 X156.182 Y67.256 E.02469
G1 X153.249 Y64.323 E.15804
G1 X152.6 Y64.323 E.02473
G1 X156.182 Y67.904 E.19298
G1 X156.182 Y68.552 E.02469
G1 X151.952 Y64.323 E.2279
G1 X151.304 Y64.322 E.02469
G1 X156.182 Y69.2 E.26284
G1 X156.182 Y69.848 E.02469
G1 X150.656 Y64.322 E.29776
G1 X150.008 Y64.322 E.02469
G1 X156.182 Y70.496 E.33268
G1 X156.182 Y71.144 E.02469
G1 X149.359 Y64.322 E.36762
G1 X148.711 Y64.322 E.02469
G1 X156.182 Y71.792 E.40253
G1 X156.182 Y72.44 E.02469
G1 X148.063 Y64.322 E.43745
G1 X147.415 Y64.321 E.02469
G1 X156.182 Y73.088 E.47239
G1 X156.182 Y73.736 E.02469
G1 X146.767 Y64.321 E.50731
G1 X146.119 Y64.321 E.02469
G1 X156.182 Y74.384 E.54223
G1 X156.182 Y75.032 E.02469
G1 X145.47 Y64.321 E.57717
G1 X144.822 Y64.321 E.02469
G1 X156.182 Y75.68 E.61209
G1 X156.182 Y76.328 E.02469
G1 X144.174 Y64.321 E.647
G1 X143.526 Y64.32 E.02469
G1 X156.182 Y76.976 E.68195
G1 X156.182 Y77.624 E.02469
G1 X142.878 Y64.32 E.71686
G1 X142.229 Y64.32 E.02473
G1 X156.182 Y78.272 E.75181
G1 X156.182 Y78.92 E.02469
G1 X141.581 Y64.32 E.78672
G1 X140.933 Y64.32 E.02469
G1 X156.182 Y79.568 E.82164
G1 X156.182 Y80.216 E.02469
G1 X140.285 Y64.32 E.85656
G1 X139.637 Y64.319 E.02469
G1 X156.182 Y80.864 E.8915
G1 X156.182 Y81.512 E.02469
G1 X138.989 Y64.319 E.92642
G1 X138.34 Y64.319 E.02473
G1 X156.182 Y82.16 E.96136
G1 X156.182 Y82.808 E.02469
G1 X137.692 Y64.319 E.99627
G1 X137.044 Y64.319 E.02469
G1 X156.182 Y83.456 E1.03119
G1 X156.182 Y84.104 E.02469
G1 X136.396 Y64.319 E1.06611
G1 X135.748 Y64.319 E.02469
G1 X156.182 Y84.752 E1.10102
G1 X156.182 Y85.401 E.02473
G1 X135.146 Y64.365 E1.13349
G1 X134.859 Y64.452 E.01143
G1 X134.681 Y64.548 E.00771
G1 X156.182 Y86.049 E1.15854
G1 X156.182 Y86.697 E.02469
G1 X134.309 Y64.824 E1.17859
G1 X134.107 Y65.069 E.0121
G1 X134.037 Y65.2 E.00566
G1 X156.182 Y87.345 E1.19325
G1 X156.182 Y87.993 E.02469
G1 X133.856 Y65.681 E1.20262
G1 X133.818 Y66.065 E.0147
G1 X133.818 Y66.278 E.00812
G1 X156.182 Y88.641 E1.20502
G1 X156.182 Y89.289 E.02469
G1 X133.818 Y66.926 E1.20502
G1 X133.818 Y67.574 E.02469
G1 X156.182 Y89.937 E1.20502
M73 P0 R103
G1 X156.182 Y90.585 E.02469
G1 X133.818 Y68.222 E1.20502
M73 P1 R103
G1 X133.818 Y68.87 E.02469
G1 X156.182 Y91.233 E1.20502
G1 X156.182 Y91.881 E.02469
G1 X133.818 Y69.518 E1.20502
G1 X133.818 Y70.166 E.02469
G1 X156.182 Y92.529 E1.20502
G1 X156.182 Y93.177 E.02469
G1 X133.818 Y70.814 E1.20502
G1 X133.818 Y71.462 E.02469
G1 X156.182 Y93.825 E1.20502
G1 X156.182 Y94.473 E.02469
G1 X133.818 Y72.11 E1.20502
G1 X133.818 Y72.758 E.02469
G1 X156.182 Y95.121 E1.20502
G1 X156.182 Y95.769 E.02469
G1 X133.818 Y73.406 E1.20502
G1 X133.818 Y74.054 E.02469
G1 X156.182 Y96.417 E1.20502
G1 X156.182 Y97.065 E.02469
G1 X133.818 Y74.702 E1.20502
G1 X133.818 Y75.35 E.02469
G1 X156.182 Y97.713 E1.20502
G1 X156.182 Y98.361 E.02469
G1 X133.818 Y75.998 E1.20502
G1 X133.818 Y76.646 E.02469
G1 X156.182 Y99.009 E1.20502
G1 X156.182 Y99.657 E.02469
G1 X133.818 Y77.294 E1.20502
G1 X133.818 Y77.942 E.02469
G1 X156.182 Y100.305 E1.20502
G1 X156.182 Y100.953 E.02469
G1 X133.818 Y78.59 E1.20502
G1 X133.818 Y79.238 E.02469
G1 X156.182 Y101.601 E1.20502
G1 X156.182 Y102.249 E.02469
G1 X133.818 Y79.886 E1.20502
G1 X133.818 Y80.534 E.02469
G1 X156.182 Y102.897 E1.20502
G1 X156.182 Y103.545 E.02469
G1 X133.818 Y81.182 E1.20502
G1 X133.818 Y81.83 E.02469
G1 X156.182 Y104.193 E1.20502
G1 X156.182 Y104.841 E.02469
G1 X133.818 Y82.478 E1.20502
G1 X133.818 Y83.126 E.02469
G1 X156.182 Y105.489 E1.20502
G1 X156.182 Y106.137 E.02469
G1 X133.818 Y83.774 E1.20502
G1 X133.818 Y84.422 E.02469
G1 X156.182 Y106.785 E1.20502
G1 X156.182 Y107.433 E.02469
G1 X133.818 Y85.07 E1.20502
G1 X133.818 Y85.718 E.02469
G1 X156.182 Y108.081 E1.20502
G1 X156.182 Y108.729 E.02469
G1 X133.818 Y86.366 E1.20502
G1 X133.818 Y87.014 E.02469
G1 X156.182 Y109.377 E1.20502
G1 X156.182 Y110.025 E.02469
G1 X133.818 Y87.662 E1.20502
G1 X133.818 Y88.31 E.02469
G1 X156.182 Y110.673 E1.20502
G1 X156.182 Y111.321 E.02469
G1 X133.818 Y88.958 E1.20502
G1 X133.818 Y89.606 E.02469
G1 X156.182 Y111.969 E1.20502
G1 X156.182 Y112.617 E.02469
G1 X133.818 Y90.254 E1.20502
G1 X133.818 Y90.902 E.02469
G1 X156.182 Y113.265 E1.20502
G1 X156.182 Y113.913 E.02469
G1 X133.818 Y91.55 E1.20502
G1 X133.818 Y92.198 E.02469
M73 P1 R102
G1 X156.182 Y114.562 E1.20505
G1 X156.182 Y115.21 E.02469
G1 X133.818 Y92.846 E1.20505
G1 X133.818 Y93.494 E.02469
M73 P2 R102
G1 X156.182 Y115.858 E1.20505
G1 X156.182 Y116.506 E.02469
G1 X133.818 Y94.142 E1.20505
G1 X133.818 Y94.791 E.02473
G1 X156.182 Y117.154 E1.20502
G1 X156.182 Y117.802 E.02469
G1 X133.818 Y95.439 E1.20502
G1 X133.818 Y96.087 E.02469
G1 X156.182 Y118.45 E1.20502
G1 X156.182 Y119.098 E.02469
G1 X133.818 Y96.735 E1.20502
G1 X133.818 Y97.383 E.02469
G1 X156.182 Y119.746 E1.20502
G1 X156.182 Y120.394 E.02469
G1 X133.818 Y98.031 E1.20502
G1 X133.818 Y98.679 E.02469
G1 X156.182 Y121.042 E1.20502
G1 X156.182 Y121.69 E.02469
G1 X133.818 Y99.327 E1.20502
G1 X133.818 Y99.975 E.02469
G1 X156.182 Y122.338 E1.20502
G1 X156.182 Y122.986 E.02469
G1 X133.818 Y100.623 E1.20502
G1 X133.818 Y101.271 E.02469
G1 X156.182 Y123.634 E1.20502
G1 X156.182 Y124.282 E.02469
G1 X133.818 Y101.919 E1.20502
G1 X133.818 Y102.567 E.02469
G1 X156.182 Y124.93 E1.20502
G1 X156.182 Y125.578 E.02469
G1 X133.818 Y103.215 E1.20502
G1 X133.818 Y103.863 E.02469
G1 X156.182 Y126.226 E1.20502
G1 X156.182 Y126.874 E.02469
G1 X133.818 Y104.511 E1.20502
G1 X133.818 Y105.159 E.02469
G1 X156.182 Y127.522 E1.20502
G1 X156.182 Y128.17 E.02469
G1 X133.818 Y105.807 E1.20502
G1 X133.818 Y106.455 E.02469
G1 X156.182 Y128.818 E1.20502
G1 X156.182 Y129.466 E.02469
G1 X133.818 Y107.103 E1.20502
G1 X133.818 Y107.751 E.02469
G1 X156.182 Y130.114 E1.20502
G1 X156.182 Y130.762 E.02469
G1 X133.818 Y108.399 E1.20502
G1 X133.818 Y109.047 E.02469
G1 X156.182 Y131.41 E1.20502
G1 X156.182 Y132.058 E.02469
G1 X133.818 Y109.695 E1.20502
G1 X133.818 Y110.343 E.02469
G1 X156.182 Y132.706 E1.20502
G1 X156.182 Y133.354 E.02469
G1 X133.818 Y110.991 E1.20502
G1 X133.818 Y111.639 E.02469
G1 X156.182 Y134.002 E1.20502
G1 X156.182 Y134.65 E.02469
G1 X133.818 Y112.287 E1.20502
G1 X133.818 Y112.935 E.02469
G1 X156.182 Y135.298 E1.20502
G1 X156.182 Y135.946 E.02469
G1 X133.818 Y113.583 E1.20502
G1 X133.818 Y114.231 E.02469
G1 X156.182 Y136.594 E1.20502
G1 X156.182 Y137.242 E.02469
G1 X133.818 Y114.879 E1.20502
G1 X133.818 Y115.527 E.02469
G1 X156.182 Y137.89 E1.20502
G1 X156.182 Y138.538 E.02469
M73 P2 R101
G1 X133.818 Y116.175 E1.20502
G1 X133.818 Y116.823 E.02469
G1 X156.182 Y139.186 E1.20502
G1 X156.182 Y139.834 E.02469
G1 X133.818 Y117.471 E1.20502
G1 X133.818 Y118.119 E.02469
G1 X156.182 Y140.482 E1.20502
G1 X156.182 Y141.13 E.02469
M73 P3 R101
G1 X133.818 Y118.767 E1.20502
G1 X133.818 Y119.415 E.02469
G1 X156.182 Y141.778 E1.20502
G1 X156.182 Y142.426 E.02469
G1 X133.818 Y120.063 E1.20502
G1 X133.818 Y120.711 E.02469
G1 X156.182 Y143.074 E1.20502
G1 X156.182 Y143.723 E.02473
G1 X133.818 Y121.359 E1.20505
G1 X133.818 Y122.007 E.02469
G1 X156.142 Y144.331 E1.20289
G1 X156.048 Y144.641 E.01234
G1 X155.963 Y144.8 E.00687
G1 X133.818 Y122.655 E1.19325
G1 X133.818 Y123.303 E.02469
G1 X155.691 Y145.176 E1.17859
G1 X155.431 Y145.393 E.0129
G1 X155.319 Y145.452 E.00482
G1 X133.818 Y123.952 E1.15852
G1 X133.818 Y124.6 E.02469
G1 X154.854 Y145.635 E1.13346
G1 X154.435 Y145.682 E.01606
G1 X154.252 Y145.682 E.00697
G1 X133.818 Y125.248 E1.10105
G1 X133.818 Y125.896 E.02469
G1 X153.604 Y145.682 E1.06613
G1 X152.956 Y145.682 E.02469
G1 X133.818 Y126.544 E1.03122
G1 X133.818 Y127.192 E.02469
G1 X152.308 Y145.682 E.9963
G1 X151.66 Y145.682 E.02469
G1 X133.818 Y127.84 E.96139
G1 X133.818 Y128.488 E.02469
G1 X151.012 Y145.682 E.92647
G1 X150.364 Y145.682 E.02469
G1 X133.818 Y129.136 E.89155
G1 X133.818 Y129.784 E.02469
G1 X149.716 Y145.682 E.85664
G1 X149.068 Y145.682 E.02469
G1 X133.818 Y130.432 E.82172
G1 X133.818 Y131.08 E.02469
G1 X148.42 Y145.682 E.7868
G1 X147.772 Y145.682 E.02469
G1 X133.818 Y131.728 E.75189
G1 X133.818 Y132.376 E.02469
G1 X147.124 Y145.682 E.71697
G1 X146.476 Y145.682 E.02469
G1 X133.818 Y133.024 E.68205
G1 X133.818 Y133.672 E.02469
G1 X145.828 Y145.682 E.64714
G1 X145.18 Y145.682 E.02469
G1 X133.818 Y134.32 E.61222
G1 X133.818 Y134.968 E.02469
G1 X144.532 Y145.682 E.57731
G1 X143.884 Y145.682 E.02469
G1 X133.818 Y135.616 E.54239
G1 X133.818 Y136.264 E.02469
G1 X143.236 Y145.682 E.50747
G1 X142.588 Y145.682 E.02469
G1 X133.818 Y136.912 E.47256
G1 X133.818 Y137.56 E.02469
G1 X141.94 Y145.682 E.43764
G1 X141.292 Y145.682 E.02469
G1 X133.818 Y138.208 E.40272
G1 X133.818 Y138.856 E.02469
G1 X140.644 Y145.682 E.36781
G1 X139.996 Y145.682 E.02469
G1 X133.818 Y139.504 E.33289
G1 X133.818 Y140.152 E.02469
G1 X139.348 Y145.682 E.29797
G1 X138.7 Y145.682 E.02469
G1 X133.818 Y140.8 E.26306
G1 X133.818 Y141.448 E.02469
G1 X138.052 Y145.682 E.22814
G1 X137.404 Y145.682 E.02469
G1 X133.818 Y142.096 E.19323
G1 X133.818 Y142.744 E.02469
G1 X136.756 Y145.682 E.15831
G1 X136.108 Y145.682 E.02469
G1 X133.818 Y143.392 E.12339
G1 X133.83 Y144.052 E.02515
G1 X135.665 Y145.887 E.09888
M204 P1000
; stop printing object output_top.stl id:1 copy 0
; printing object output_bottom.stl id:0 copy 0
G1 E-.64 F2100
;WIPE_START
G1 F9600
G1 X135.121 Y145.343 E-.16
;WIPE_END
G1 Z.4 F720
G1 X93.441 Y65.729 F12000
G1 Z.2 F720
G1 E.8 F1500
M204 P600
;TYPE:Perimeter
;WIDTH:0.499999
G1 F1200
G1 X93.452 Y65.593 E.00519
G1 X93.57 Y65.201 E.01556
G1 X93.763 Y64.84 E.01556
G1 X94.023 Y64.523 E.01558
G1 X94.34 Y64.263 E.01558
G1 X94.701 Y64.07 E.01556
G1 X95.093 Y63.952 E.01556
G1 X95.545 Y63.907 E.01726
G1 X114.345 Y63.907 E.71452
G1 X114.907 Y63.952 E.02143
G1 X115.299 Y64.07 E.01556
G1 X115.66 Y64.263 E.01556
G1 X115.977 Y64.523 E.01558
G1 X116.237 Y64.84 E.01558
G1 X116.43 Y65.201 E.01556
G1 X116.548 Y65.593 E.01556
G1 X116.593 Y66.155 E.02143
G1 X116.593 Y143.845 E2.95271
G1 X116.548 Y144.407 E.02143
G1 X116.43 Y144.799 E.01556
G1 X116.237 Y145.16 E.01556
G1 X115.977 Y145.477 E.01558
G1 X115.66 Y145.737 E.01558
G1 X115.299 Y145.93 E.01556
G1 X114.907 Y146.048 E.01556
G1 X114.455 Y146.093 E.01726
G1 X95.655 Y146.093 E.71452
M73 P3 R100
G1 X95.093 Y146.048 E.02143
G1 X94.701 Y145.93 E.01556
G1 X94.34 Y145.737 E.01556
G1 X94.023 Y145.477 E.01558
G1 X93.763 Y145.16 E.01558
G1 X93.57 Y144.799 E.01556
G1 X93.452 Y144.407 E.01556
G1 X93.407 Y143.955 E.01726
G1 X93.407 Y66.155 E2.95689
G1 X93.436 Y65.789 E.01395
M204 P1000
G1 X92.982 Y65.697 F12000
M204 P600
;TYPE:External perimeter
G1 F1200
G1 X93.001 Y65.503 E.00741
G1 X93.146 Y65.025 E.01898
G1 X93.382 Y64.585 E.01898
G1 X93.698 Y64.198 E.01899
G1 X94.085 Y63.882 E.01899
G1 X94.525 Y63.646 E.01898
G1 X95.003 Y63.501 E.01898
G1 X95.522 Y63.45 E.01982
G1 X114.478 Y63.45 E.72045
G1 X114.997 Y63.501 E.01982
G1 X115.475 Y63.646 E.01898
G1 X115.915 Y63.882 E.01898
