; generated by PrusaSlicer 2.6.1+win64 on 2024-04-03 at 22:34:04 UTC


;
;

;
;

;
;
; 

; external perimeters extrusion width = 0.45mm
; perimeters extrusion width = 0.45mm
; infill extrusion width = 0.45mm
; solid infill extrusion width = 0.45mm
; top infill extrusion width = 0.42mm
; first layer extrusion width = 0.50mm

; external perimeters extrusion width = 0.45mm
; perimeters extrusion width = 0.45mm
; infill extrusion width = 0.45mm
; solid infill extrusion width = 0.45mm
; top infill extrusion width = 0.42mm
; first layer extrusion width = 0.50mm

M73 P0 R39
M201 X2500 Y2500 Z200 E2500 ; sets maximum accelerations, mm/sec^2
M203 X200 Y200 Z40 E100 ; sets maximum feedrates, mm / sec
M204 P2000 R1200 T2000 ; sets acceleration (P, T) and retract acceleration (R), mm/sec^2
M205 X8.00 Y8.00 Z2.00 E10.00 ; sets the jerk limits, mm/sec
M205 S0 T0 ; sets the minimum extruding and travel feed rate, mm/sec
;TYPE:Custom
M17 ; enable steppers
M862.3 P "MK4" ; printer model check
M862.1 P0.4 ; nozzle diameter check
M555 X89.5 Y83 W71 H40

G90 ; use absolute coordinates
M83 ; extruder relative mode

M140 S60 ; set bed temp

M104 S170 ; set extruder temp for bed leveling
M109 R170 ; wait for temp


M84 E ; turn off E motor

G28 ; home all without mesh bed level

G1 X42 Y-4 Z5 F4800

M302 S160 ; lower cold extrusion limit to 160C


G1 E-2 F2400 ; retraction


M84 E ; turn off E motor

G29 P9 X10 Y-4 W32 H4

M106 S100

G0 Z40 F10000

M190 S60 ; wait for bed temp

M107

;
; MBL
;
M84 E ; turn off E motor
G29 P1 ; invalidate mbl & probe print area
G29 P1 X0 Y0 W50 H20 C ; probe near purge place
G29 P3.2 ; interpolate mbl probes
G29 P3.13 ; extrapolate mbl outside probe area
G29 A ; activate mbl

; prepare for purge
M104 S215
G0 X0 Y-4 Z15 F4800 ; move away and ready for the purge
M109 S215

G92 E0
M569 S0 E ; set spreadcycle mode for extruder

;
; Extrude purge line
;
G92 E0 ; reset extruder position
G1 E2 F2400 ; deretraction after the initial one before nozzle cleaning
G0 E7 X15 Z0.2 F500 ; purge
G0 X25 E4 F500 ; purge
G0 X35 E4 F650 ; purge
G0 X45 E4 F800 ; purge
G0 X48 Z0.05 F8000 ; wipe, move close to the bed
G0 X51 Z0.2 F8000 ; wipe, move quickly away from the bed

G92 E0
M221 S100 ; set flow to 100%
G21 ; set units to millimeters
G90 ; use absolute coordinates
M83 ; use relative distances for extrusion
M900 K0.05 ; Filament gcode



M142 S36 ; set heatbreak target temp
M107
;LAYER_CHANGE
;Z:0.2
;HEIGHT:0.2
;BEFORE_LAYER_CHANGE
G92 E0.0
;0.2


G1 E-.8 F2100
G1 Z.2 F720
;AFTER_LAYER_CHANGE
;0.2
; printing object soil_temp_bottom.stl id:0 copy 0
G1 Z.4
G1 X159.58 Y120.113 F12000
G1 Z.2 F720
G1 E.8 F1500
M204 P600
;TYPE:Perimeter
;WIDTH:0.499999
G1 F1200
G1 X159.569 Y120.298 E.00704
G1 X159.402 Y120.868 E.02257
G1 X159.08 Y121.369 E.02263
G1 X158.63 Y121.759 E.02263
G1 X158.089 Y122.006 E.0226
G1 X157.468 Y122.093 E.02383
G1 X132.611 Y122.093 E.94472
G1 X132.202 Y122.069 E.01557
G1 X131.632 Y121.902 E.02257
G1 X131.131 Y121.58 E.02263
G1 X130.741 Y121.13 E.02263
G1 X130.494 Y120.589 E.0226
G1 X130.407 Y119.968 E.02383
G1 X130.407 Y90.111 E1.13475
G1 X130.431 Y89.702 E.01557
G1 X130.598 Y89.132 E.02257
G1 X130.92 Y88.631 E.02263
G1 X131.37 Y88.241 E.02263
G1 X131.911 Y87.994 E.0226
G1 X132.532 Y87.907 E.02383
G1 X157.389 Y87.907 E.94472
G1 X157.546 Y87.913 E.00597
G1 X158.089 Y87.994 E.02087
G1 X158.63 Y88.241 E.0226
G1 X159.08 Y88.631 E.02263
G1 X159.402 Y89.132 E.02263
G1 X159.538 Y89.557 E.01696
G1 X159.593 Y90.111 E.02116
G1 X159.583 Y120.053 E1.13798
M204 P1000
G1 X160.024 Y120.254 F12000
M204 P600
;TYPE:External perimeter
G1 F1200
G1 X159.946 Y120.718 E.01788
G1 X159.731 Y121.218 E.02069
G1 X159.426 Y121.669 E.02069
G1 X159.024 Y122.035 E.02066
G1 X158.559 Y122.319 E.02071
G1 X158.04 Y122.484 E.0207
G1 X157.484 Y122.55 E.02128
G1 X132.611 Y122.55 E.94533
G1 X132.319 Y122.536 E.01111
G1 X131.782 Y122.446 E.02069
G1 X131.282 Y122.231 E.02069
G1 X130.831 Y121.926 E.02069
G1 X130.465 Y121.524 E.02066
G1 X130.181 Y121.059 E.02071
G1 X130.016 Y120.54 E.0207
G1 X129.95 Y119.984 E.02128
G1 X129.95 Y90.111 E1.13536
G1 X129.964 Y89.819 E.01111
G1 X130.054 Y89.282 E.02069
G1 X130.269 Y88.782 E.02069
G1 X130.574 Y88.331 E.02069
G1 X130.976 Y87.965 E.02066
G1 X131.441 Y87.681 E.02071
G1 X131.96 Y87.516 E.0207
G1 X132.516 Y87.45 E.02128
G1 X157.389 Y87.45 E.94533
G1 X157.681 Y87.464 E.01111
G1 X158.218 Y87.554 E.02069
G1 X158.718 Y87.769 E.02069
G1 X159.169 Y88.074 E.02069
G1 X159.535 Y88.476 E.02066
G1 X159.819 Y88.941 E.02071
G1 X159.984 Y89.46 E.0207
G1 X160.05 Y90.111 E.02487
G1 X160.05 Y119.889 E1.13175
G1 X160.034 Y120.195 E.01165
M204 P1000
G1 X159.657 Y120.414 F12000
G1 E-.64 F2100
;WIPE_START
G1 F9600
G1 X159.946 Y120.718 E-.11021
G1 X159.851 Y120.938 E-.04979
;WIPE_END
G1 Z.4 F720
G1 X159.292 Y89.426 F12000
G1 Z.2 F720
G1 E.8 F1500
M204 P600
;TYPE:Solid infill
;WIDTH:0.502014
G1 F1200
G1 X158.593 Y88.727 E.03774
G1 X158.407 Y88.588 E.00886
G1 X158.197 Y88.473 E.00914
G1 X157.973 Y88.39 E.00912
G1 X157.74 Y88.339 E.00911
G1 X157.544 Y88.328 E.00749
G1 X159.175 Y89.959 E.08805
G1 X159.182 Y90.614 E.02501
G1 X156.886 Y88.318 E.12395
G1 X156.236 Y88.318 E.02481
G1 X159.182 Y91.264 E.15904
G1 X159.182 Y91.913 E.02477
G1 X155.587 Y88.318 E.19408
G1 X154.938 Y88.318 E.02477
G1 X159.182 Y92.562 E.22912
G1 X159.182 Y93.211 E.02477
G1 X154.289 Y88.318 E.26415
G1 X153.639 Y88.318 E.02481
G1 X159.182 Y93.861 E.29924
G1 X159.182 Y94.51 E.02477
G1 X152.99 Y88.318 E.33428
G1 X152.341 Y88.318 E.02477
G1 X159.182 Y95.159 E.36932
G1 X159.182 Y95.808 E.02477
M73 P1 R39
G1 X151.692 Y88.318 E.40435
G1 X151.042 Y88.318 E.02481
G1 X159.182 Y96.458 E.43945
G1 X159.182 Y97.107 E.02477
G1 X150.393 Y88.318 E.47448
G1 X149.744 Y88.318 E.02477
G1 X159.182 Y97.756 E.50952
G1 X159.182 Y98.405 E.02477
G1 X149.095 Y88.318 E.54456
G1 X148.445 Y88.318 E.02481
G1 X159.182 Y99.055 E.57965
G1 X159.182 Y99.704 E.02477
G1 X147.796 Y88.318 E.61468
G1 X147.147 Y88.318 E.02477
G1 X159.182 Y100.353 E.64972
G1 X159.182 Y101.002 E.02477
G1 X146.498 Y88.318 E.68476
G1 X145.848 Y88.318 E.02481
G1 X159.182 Y101.652 E.71985
G1 X159.182 Y102.301 E.02477
G1 X145.199 Y88.318 E.75489
G1 X144.55 Y88.318 E.02477
G1 X159.182 Y102.95 E.78992
G1 X159.182 Y103.599 E.02477
G1 X143.901 Y88.318 E.82496
G1 X143.251 Y88.318 E.02481
M73 P1 R38
G1 X159.182 Y104.249 E.86005
G1 X159.182 Y104.898 E.02477
G1 X142.602 Y88.318 E.89509
G1 X141.953 Y88.318 E.02477
G1 X159.182 Y105.547 E.93012
G1 X159.182 Y106.196 E.02477
G1 X141.304 Y88.318 E.96516
G1 X140.654 Y88.318 E.02481
G1 X159.182 Y106.846 E1.00025
G1 X159.182 Y107.495 E.02477
G1 X140.005 Y88.318 E1.03529
G1 X139.356 Y88.318 E.02477
G1 X159.182 Y108.144 E1.07033
G1 X159.182 Y108.793 E.02477
G1 X138.707 Y88.318 E1.10536
G1 X138.057 Y88.318 E.02481
G1 X159.182 Y109.443 E1.14045
G1 X159.182 Y110.092 E.02477
G1 X137.408 Y88.318 E1.17549
G1 X136.759 Y88.318 E.02477
G1 X159.182 Y110.741 E1.21053
G1 X159.182 Y111.391 E.02481
G1 X136.109 Y88.318 E1.24562
G1 X135.46 Y88.318 E.02477
M73 P2 R38
G1 X159.182 Y112.04 E1.28065
G1 X159.182 Y112.689 E.02477
G1 X134.811 Y88.318 E1.31569
G1 X134.162 Y88.318 E.02477
G1 X159.182 Y113.338 E1.35073
G1 X159.182 Y113.988 E.02481
G1 X133.512 Y88.318 E1.38582
G1 X132.863 Y88.318 E.02477
G1 X159.182 Y114.637 E1.42086
G1 X159.182 Y115.286 E.02477
G1 X132.239 Y88.344 E1.45452
G1 X132.027 Y88.39 E.00828
G1 X131.749 Y88.503 E.01146
G1 X159.182 Y115.935 E1.48097
G1 X159.182 Y116.585 E.02481
G1 X131.365 Y88.768 E1.50173
G1 X131.232 Y88.901 E.00718
G1 X131.071 Y89.124 E.0105
G1 X159.182 Y117.234 E1.51757
G1 X159.182 Y117.883 E.02477
G1 X130.878 Y89.58 E1.52799
G1 X130.839 Y89.761 E.00707
G1 X130.818 Y90.169 E.0156
G1 X159.182 Y118.532 E1.53123
G1 X159.182 Y119.182 E.02481
G1 X130.818 Y90.819 E1.53123
G1 X130.818 Y91.468 E.02477
G1 X159.182 Y119.831 E1.53123
M73 P3 R38
G1 X159.182 Y119.953 E.00466
G1 X159.161 Y120.239 E.01095
G1 X159.122 Y120.42 E.00707
G1 X130.818 Y92.117 E1.52799
G1 X130.818 Y92.766 E.02477
G1 X158.929 Y120.876 E1.51757
G1 X158.768 Y121.099 E.0105
G1 X158.635 Y121.232 E.00718
G1 X130.818 Y93.416 E1.5017
G1 X130.818 Y94.065 E.02477
G1 X158.251 Y121.497 E1.48097
G1 X157.973 Y121.61 E.01146
G1 X157.761 Y121.656 E.00828
G1 X130.818 Y94.714 E1.45452
G1 X130.818 Y95.363 E.02477
G1 X157.137 Y121.682 E1.42086
G1 X156.487 Y121.682 E.02481
G1 X130.818 Y96.013 E1.38576
G1 X130.818 Y96.662 E.02477
G1 X155.838 Y121.682 E1.35073
G1 X155.189 Y121.682 E.02477
G1 X130.818 Y97.311 E1.31569
G1 X130.818 Y97.96 E.02477
G1 X154.54 Y121.682 E1.28065
G1 X153.89 Y121.682 E.02481
G1 X130.818 Y98.61 E1.24556
G1 X130.818 Y99.259 E.02477
M73 P3 R37
G1 X153.241 Y121.682 E1.21053
G1 X152.592 Y121.682 E.02477
M73 P4 R37
G1 X130.818 Y99.908 E1.17549
G1 X130.818 Y100.557 E.02477
G1 X151.943 Y121.682 E1.14045
G1 X151.293 Y121.682 E.02481
G1 X130.818 Y101.207 E1.10536
G1 X130.818 Y101.856 E.02477
G1 X150.644 Y121.682 E1.07033
G1 X149.995 Y121.682 E.02477
G1 X130.818 Y102.505 E1.03529
G1 X130.818 Y103.154 E.02477
G1 X149.346 Y121.682 E1.00025
G1 X148.696 Y121.682 E.02481
G1 X130.818 Y103.804 E.96516
G1 X130.818 Y104.453 E.02477
G1 X148.047 Y121.682 E.93012
G1 X147.398 Y121.682 E.02477
G1 X130.818 Y105.102 E.89509
G1 X130.818 Y105.751 E.02477
G1 X146.749 Y121.682 E.86005
G1 X146.099 Y121.682 E.02481
G1 X130.818 Y106.401 E.82496
G1 X130.818 Y107.05 E.02477
G1 X145.45 Y121.682 E.78992
G1 X144.801 Y121.682 E.02477
G1 X130.818 Y107.699 E.75489
G1 X130.818 Y108.348 E.02477
G1 X144.152 Y121.682 E.71985
G1 X143.502 Y121.682 E.02481
G1 X130.818 Y108.998 E.68476
G1 X130.818 Y109.647 E.02477
G1 X142.853 Y121.682 E.64972
G1 X142.204 Y121.682 E.02477
G1 X130.818 Y110.296 E.61468
G1 X130.818 Y110.945 E.02477
M73 P5 R37
G1 X141.555 Y121.682 E.57965
G1 X140.905 Y121.682 E.02481
G1 X130.818 Y111.595 E.54456
G1 X130.818 Y112.244 E.02477
G1 X140.256 Y121.682 E.50952
G1 X139.607 Y121.682 E.02477
G1 X130.818 Y112.893 E.47448
G1 X130.818 Y113.542 E.02477
G1 X138.958 Y121.682 E.43945
G1 X138.308 Y121.682 E.02481
G1 X130.818 Y114.192 E.40435
G1 X130.818 Y114.841 E.02477
G1 X137.659 Y121.682 E.36932
G1 X137.01 Y121.682 E.02477
G1 X130.818 Y115.49 E.33428
G1 X130.818 Y116.14 E.02481
G1 X136.36 Y121.682 E.29919
G1 X135.711 Y121.682 E.02477
G1 X130.818 Y116.789 E.26415
G1 X130.818 Y117.438 E.02477
G1 X135.062 Y121.682 E.22912
G1 X134.413 Y121.682 E.02477
G1 X130.818 Y118.087 E.19408
G1 X130.818 Y118.737 E.02481
G1 X133.763 Y121.682 E.15899
G1 X133.114 Y121.682 E.02477
G1 X130.818 Y119.386 E.12395
G1 X130.825 Y120.041 E.02501
G1 X132.459 Y121.675 E.08821
G1 X132.261 Y121.661 E.00758
G1 X132.027 Y121.61 E.00914
G1 X131.803 Y121.527 E.00912
G1 X131.593 Y121.412 E.00914
G1 X131.407 Y121.272 E.00889
G1 X130.708 Y120.574 E.03771
M204 P1000
; stop printing object soil_temp_bottom.stl id:0 copy 0
; printing object soil_temp_top.stl id:1 copy 0
G1 E-.64 F2100
;WIPE_START
G1 F9600
G1 X131.253 Y121.118 E-.16
;WIPE_END
G1 Z.4 F720
G1 X90.407 Y119.883 F12000
G1 Z.2 F720
G1 E.8 F1500
M204 P600
;TYPE:Perimeter
;WIDTH:0.499999
G1 F1200
G1 X90.407 Y90.111 E1.13152
G1 X90.431 Y89.702 E.01557
G1 X90.598 Y89.132 E.02257
G1 X90.92 Y88.631 E.02263
G1 X91.37 Y88.241 E.02263
G1 X91.911 Y87.994 E.0226
G1 X92.532 Y87.907 E.02383
G1 X117.392 Y87.91 E.94484
G1 X117.58 Y87.915 E.00715
G1 X118.089 Y87.994 E.01958
G1 X118.63 Y88.241 E.0226
G1 X119.08 Y88.631 E.02263
G1 X119.402 Y89.132 E.02263
G1 X119.538 Y89.557 E.01696
G1 X119.593 Y90.111 E.02116
G1 X119.593 Y119.889 E1.13175
G1 X119.569 Y120.298 E.01557
G1 X119.402 Y120.868 E.02257
G1 X119.08 Y121.369 E.02263
G1 X118.63 Y121.759 E.02263
G1 X118.089 Y122.006 E.0226
G1 X117.468 Y122.093 E.02383
G1 X92.611 Y122.093 E.94472
G1 X92.202 Y122.069 E.01557
G1 X91.632 Y121.902 E.02257
G1 X91.131 Y121.58 E.02263
G1 X90.741 Y121.13 E.02263
G1 X90.494 Y120.589 E.0226
G1 X90.407 Y119.943 E.02477
M204 P1000
G1 X89.95 Y119.883 F12000
M204 P600
;TYPE:External perimeter
G1 F1200
G1 X89.95 Y90.111 E1.13152
G1 X89.964 Y89.819 E.01111
G1 X90.054 Y89.282 E.02069
G1 X90.269 Y88.782 E.02069
G1 X90.574 Y88.331 E.02069
G1 X90.976 Y87.965 E.02066
G1 X91.441 Y87.681 E.02071
G1 X91.96 Y87.516 E.0207
G1 X92.516 Y87.45 E.02128
G1 X117.392 Y87.453 E.94544
G1 X117.681 Y87.464 E.01099
G1 X118.218 Y87.554 E.02069
G1 X118.718 Y87.769 E.02069
G1 X119.169 Y88.074 E.02069
G1 X119.535 Y88.476 E.02066
G1 X119.819 Y88.941 E.02071
G1 X119.984 Y89.46 E.0207
G1 X120.05 Y90.111 E.02487
G1 X120.05 Y119.889 E1.13175
G1 X120.036 Y120.181 E.01111
G1 X119.946 Y120.718 E.02069
G1 X119.731 Y121.218 E.02069
G1 X119.426 Y121.669 E.02069
G1 X119.024 Y122.035 E.02066
G1 X118.559 Y122.319 E.02071
G1 X118.04 Y122.484 E.0207
G1 X117.484 Y122.55 E.02128
G1 X92.611 Y122.55 E.94533
G1 X92.319 Y122.536 E.01111
G1 X91.782 Y122.446 E.02069
G1 X91.282 Y122.231 E.02069
G1 X90.831 Y121.926 E.02069
G1 X90.465 Y121.524 E.02066
G1 X90.181 Y121.059 E.02071
G1 X90.016 Y120.54 E.0207
G1 X89.95 Y119.943 E.02283
M204 P1000
G1 X90.283 Y119.661 F12000
M73 P6 R37
G1 E-.64 F2100
;WIPE_START
G1 F9600
G1 X89.95 Y119.173 E-.16
;WIPE_END
G1 Z.4 F720
G1 X119.292 Y89.426 F12000
G1 Z.2 F720
G1 E.8 F1500
M204 P600
;TYPE:Solid infill
;WIDTH:0.502014
G1 F1200
G1 X118.593 Y88.727 E.03774
G1 X118.407 Y88.588 E.00886
G1 X118.197 Y88.473 E.00914
G1 X117.973 Y88.39 E.00912
G1 X117.739 Y88.339 E.00914
G1 X117.541 Y88.325 E.00758
G1 X119.175 Y89.959 E.08821
G1 X119.182 Y90.614 E.02501
G1 X116.888 Y88.321 E.12382
G1 X116.239 Y88.321 E.02477
G1 X119.182 Y91.264 E.15888
G1 X119.182 Y91.913 E.02477
G1 X115.59 Y88.321 E.19392
G1 X114.94 Y88.321 E.02481
G1 X119.182 Y92.562 E.22898
G1 X119.182 Y93.211 E.02477
G1 X114.291 Y88.321 E.26402
G1 X113.642 Y88.321 E.02477
G1 X119.182 Y93.861 E.29908
G1 X119.182 Y94.51 E.02477
G1 X112.992 Y88.321 E.33415
G1 X112.343 Y88.32 E.02477
G1 X119.182 Y95.159 E.36921
G1 X119.182 Y95.808 E.02477
G1 X111.694 Y88.32 E.40425
G1 X111.044 Y88.32 E.02481
G1 X119.182 Y96.458 E.43934
G1 X119.182 Y97.107 E.02477
G1 X110.395 Y88.32 E.47437
G1 X109.746 Y88.32 E.02477
G1 X119.182 Y97.756 E.50941
G1 X119.182 Y98.405 E.02477
G1 X109.096 Y88.32 E.54448
G1 X108.447 Y88.32 E.02477
G1 X119.182 Y99.055 E.57954
G1 X119.182 Y99.704 E.02477
G1 X107.798 Y88.32 E.61458
G1 X107.148 Y88.32 E.02481
G1 X119.182 Y100.353 E.64964
G1 X119.182 Y101.002 E.02477
G1 X106.499 Y88.32 E.68468
G1 X105.85 Y88.32 E.02477
G1 X119.182 Y101.652 E.71974
G1 X119.182 Y102.301 E.02477
G1 X105.2 Y88.32 E.7548
G1 X104.551 Y88.32 E.02477
G1 X119.182 Y102.95 E.78984
G1 X119.182 Y103.599 E.02477
M73 P6 R36
G1 X103.902 Y88.32 E.82488
G1 X103.252 Y88.32 E.02481
G1 X119.182 Y104.249 E.85997
G1 X119.182 Y104.898 E.02477
G1 X102.603 Y88.319 E.89503
G1 X101.954 Y88.319 E.02477
G1 X119.182 Y105.547 E.93007
G1 X119.182 Y106.196 E.02477
G1 X101.304 Y88.319 E.96513
G1 X100.655 Y88.319 E.02477
G1 X119.182 Y106.846 E1.0002
G1 X119.182 Y107.495 E.02477
G1 X100.006 Y88.319 E1.03523
G1 X99.356 Y88.319 E.02481
G1 X119.182 Y108.144 E1.0703
G1 X119.182 Y108.793 E.02477
G1 X98.707 Y88.319 E1.10533
G1 X98.058 Y88.319 E.02477
G1 X119.182 Y109.443 E1.1404
G1 X119.182 Y110.092 E.02477
G1 X97.408 Y88.319 E1.17546
G1 X96.759 Y88.319 E.02477
G1 X119.182 Y110.741 E1.2105
G1 X119.182 Y111.391 E.02481
M73 P7 R36
G1 X96.11 Y88.319 E1.24556
G1 X95.461 Y88.319 E.02477
G1 X119.182 Y112.04 E1.2806
G1 X119.182 Y112.689 E.02477
G1 X94.811 Y88.319 E1.31566
G1 X94.162 Y88.319 E.02477
G1 X119.182 Y113.338 E1.3507
G1 X119.182 Y113.988 E.02481
G1 X93.513 Y88.319 E1.38576
G1 X92.863 Y88.318 E.02481
G1 X119.182 Y114.637 E1.42086
G1 X119.182 Y115.286 E.02477
G1 X92.239 Y88.344 E1.45452
G1 X92.027 Y88.39 E.00828
G1 X91.749 Y88.503 E.01146
G1 X119.182 Y115.935 E1.48097
G1 X119.182 Y116.585 E.02481
G1 X91.365 Y88.768 E1.50173
G1 X91.232 Y88.901 E.00718
G1 X91.071 Y89.124 E.0105
G1 X119.182 Y117.234 E1.51757
G1 X119.182 Y117.883 E.02477
G1 X90.878 Y89.58 E1.52799
G1 X90.839 Y89.761 E.00707
G1 X90.818 Y90.169 E.0156
G1 X119.182 Y118.532 E1.53123
G1 X119.182 Y119.182 E.02481
M73 P8 R36
G1 X90.818 Y90.819 E1.53123
G1 X90.818 Y91.468 E.02477
G1 X119.182 Y119.831 E1.53123
