; generated by PrusaSlicer 2.6.1+win64 on 2024-03-29 at 17:19:45 UTC


;
;

;
;

;
;
; 

; external perimeters extrusion width = 0.45mm
; perimeters extrusion width = 0.45mm
; infill extrusion width = 0.45mm
; solid infill extrusion width = 0.45mm
; top infill extrusion width = 0.42mm
; first layer extrusion width = 0.50mm

; external perimeters extrusion width = 0.45mm
; perimeters extrusion width = 0.45mm
; infill extrusion width = 0.45mm
; solid infill extrusion width = 0.45mm
; top infill extrusion width = 0.42mm
; first layer extrusion width = 0.50mm

M73 P0 R25
M201 X2500 Y2500 Z200 E2500 ; sets maximum accelerations, mm/sec^2
M203 X200 Y200 Z40 E100 ; sets maximum feedrates, mm / sec
M204 P2000 R1200 T2000 ; sets acceleration (P, T) and retract acceleration (R), mm/sec^2
M205 X8.00 Y8.00 Z2.00 E10.00 ; sets the jerk limits, mm/sec
M205 S0 T0 ; sets the minimum extruding and travel feed rate, mm/sec
;TYPE:Custom
M17 ; enable steppers
M862.3 P "MK4" ; printer model check
M862.1 P0.4 ; nozzle diameter check
M555 X98.5 Y80.5 W53 H45

G90 ; use absolute coordinates
M83 ; extruder relative mode

M140 S60 ; set bed temp

M104 S170 ; set extruder temp for bed leveling
M109 R170 ; wait for temp


M84 E ; turn off E motor

G28 ; home all without mesh bed level

G1 X42 Y-4 Z5 F4800

M302 S160 ; lower cold extrusion limit to 160C


G1 E-2 F2400 ; retraction


M84 E ; turn off E motor

G29 P9 X10 Y-4 W32 H4

M106 S100

G0 Z40 F10000

M190 S60 ; wait for bed temp

M107

;
; MBL
;
M84 E ; turn off E motor
G29 P1 ; invalidate mbl & probe print area
G29 P1 X0 Y0 W50 H20 C ; probe near purge place
G29 P3.2 ; interpolate mbl probes
G29 P3.13 ; extrapolate mbl outside probe area
G29 A ; activate mbl

; prepare for purge
M104 S215
G0 X0 Y-4 Z15 F4800 ; move away and ready for the purge
M109 S215

G92 E0
M569 S0 E ; set spreadcycle mode for extruder

;
; Extrude purge line
;
G92 E0 ; reset extruder position
G1 E2 F2400 ; deretraction after the initial one before nozzle cleaning
G0 E7 X15 Z0.2 F500 ; purge
G0 X25 E4 F500 ; purge
G0 X35 E4 F650 ; purge
G0 X45 E4 F800 ; purge
G0 X48 Z0.05 F8000 ; wipe, move close to the bed
G0 X51 Z0.2 F8000 ; wipe, move quickly away from the bed

G92 E0
M221 S100 ; set flow to 100%
G21 ; set units to millimeters
G90 ; use absolute coordinates
M83 ; use relative distances for extrusion
M900 K0.05 ; Filament gcode



M142 S36 ; set heatbreak target temp
M107
;LAYER_CHANGE
;Z:0.2
;HEIGHT:0.2
;BEFORE_LAYER_CHANGE
G92 E0.0
;0.2


G1 E-.8 F2100
G1 Z.2 F720
;AFTER_LAYER_CHANGE
;0.2
; printing object sensor_board_housing_top.stl id:1 copy 0
G1 Z.4
G1 X129.407 Y122.389 F12000
G1 Z.2 F720
G1 E.8 F1500
M204 P600
;TYPE:Perimeter
;WIDTH:0.499999
G1 F1200
G1 X129.407 Y87.611 E1.32178
G1 X129.431 Y87.202 E.01557
G1 X129.598 Y86.632 E.02257
G1 X129.92 Y86.131 E.02263
G1 X130.37 Y85.741 E.02263
G1 X130.911 Y85.494 E.0226
G1 X131.532 Y85.407 E.02383
G1 X148.392 Y85.41 E.64079
G1 X148.58 Y85.415 E.00715
G1 X149.089 Y85.494 E.01958
G1 X149.63 Y85.741 E.0226
G1 X150.08 Y86.131 E.02263
G1 X150.402 Y86.632 E.02263
G1 X150.538 Y87.057 E.01696
G1 X150.593 Y87.611 E.02116
G1 X150.593 Y122.389 E1.32178
G1 X150.569 Y122.798 E.01557
G1 X150.402 Y123.368 E.02257
G1 X150.08 Y123.869 E.02263
G1 X149.63 Y124.259 E.02263
G1 X149.089 Y124.506 E.0226
G1 X148.468 Y124.593 E.02383
G1 X131.611 Y124.593 E.64067
G1 X131.202 Y124.569 E.01557
G1 X130.632 Y124.402 E.02257
G1 X130.131 Y124.08 E.02263
G1 X129.741 Y123.63 E.02263
G1 X129.494 Y123.089 E.0226
G1 X129.407 Y122.449 E.02455
M204 P1000
G1 X128.95 Y122.389 F12000
M204 P600
;TYPE:External perimeter
G1 F1200
G1 X128.95 Y87.611 E1.32178
G1 X128.964 Y87.319 E.01111
G1 X129.054 Y86.782 E.02069
G1 X129.269 Y86.282 E.02069
G1 X129.574 Y85.831 E.02069
G1 X129.976 Y85.465 E.02066
M73 P1 R25
G1 X130.441 Y85.181 E.02071
G1 X130.96 Y85.016 E.0207
G1 X131.516 Y84.95 E.02128
G1 X148.392 Y84.953 E.64139
G1 X148.681 Y84.964 E.01099
G1 X149.218 Y85.054 E.02069
G1 X149.718 Y85.269 E.02069
G1 X150.169 Y85.574 E.02069
G1 X150.535 Y85.976 E.02066
G1 X150.819 Y86.441 E.02071
G1 X150.984 Y86.96 E.0207
G1 X151.05 Y87.611 E.02487
G1 X151.05 Y122.389 E1.32178
G1 X151.036 Y122.681 E.01111
G1 X150.946 Y123.218 E.02069
G1 X150.731 Y123.718 E.02069
G1 X150.426 Y124.169 E.02069
G1 X150.024 Y124.535 E.02066
G1 X149.559 Y124.819 E.02071
G1 X149.04 Y124.984 E.0207
G1 X148.484 Y125.05 E.02128
G1 X131.611 Y125.05 E.64128
G1 X131.319 Y125.036 E.01111
G1 X130.782 Y124.946 E.02069
G1 X130.282 Y124.731 E.02069
G1 X129.831 Y124.426 E.02069
G1 X129.465 Y124.024 E.02066
G1 X129.181 Y123.559 E.02071
G1 X129.016 Y123.04 E.0207
G1 X128.95 Y122.449 E.0226
M204 P1000
G1 X129.283 Y122.166 F12000
G1 E-.64 F2100
;WIPE_START
G1 F9600
G1 X128.95 Y121.679 E-.16
;WIPE_END
G1 Z.4 F720
G1 X150.293 Y86.929 F12000
G1 Z.2 F720
G1 E.8 F1500
M204 P600
;TYPE:Solid infill
;WIDTH:0.503993
G1 F1200
G1 X149.587 Y86.223 E.03828
G1 X149.407 Y86.088 E.00863
G1 X149.197 Y85.973 E.00918
G1 X148.973 Y85.89 E.00916
G1 X148.739 Y85.839 E.00918
G1 X148.537 Y85.824 E.00777
G1 X150.176 Y87.463 E.08886
G1 X150.182 Y88.121 E.02523
G1 X147.881 Y85.821 E.12473
G1 X147.229 Y85.821 E.025
G1 X150.182 Y88.773 E.16008
G1 X150.182 Y89.425 E.025
G1 X146.577 Y85.821 E.19543
G1 X145.925 Y85.821 E.025
G1 X150.182 Y90.077 E.23078
G1 X150.182 Y90.73 E.02503
G1 X145.273 Y85.821 E.26616
G1 X144.62 Y85.82 E.02503
G1 X150.182 Y91.382 E.30156
G1 X150.182 Y92.034 E.025
G1 X143.968 Y85.82 E.33691
G1 X143.316 Y85.82 E.025
G1 X150.182 Y92.686 E.37227
G1 X150.182 Y93.338 E.025
G1 X142.664 Y85.82 E.40762
G1 X142.012 Y85.82 E.025
G1 X150.182 Y93.99 E.44297
G1 X150.182 Y94.642 E.025
G1 X141.36 Y85.82 E.47832
G1 X140.707 Y85.82 E.02503
G1 X150.182 Y95.294 E.51369
G1 X150.182 Y95.946 E.025
G1 X140.055 Y85.82 E.54905
G1 X139.403 Y85.82 E.025
G1 X150.182 Y96.598 E.5844
G1 X150.182 Y97.25 E.025
G1 X138.751 Y85.82 E.61975
G1 X138.099 Y85.819 E.025
G1 X150.182 Y97.902 E.65512
G1 X150.182 Y98.554 E.025
G1 X137.447 Y85.819 E.69047
G1 X136.795 Y85.819 E.025
G1 X150.182 Y99.206 E.72583
G1 X150.182 Y99.858 E.025
G1 X136.142 Y85.819 E.7612
G1 X135.49 Y85.819 E.025
G1 X150.182 Y100.51 E.79655
G1 X150.182 Y101.162 E.025
M73 P2 R25
G1 X134.838 Y85.819 E.8319
G1 X134.186 Y85.819 E.025
G1 X150.182 Y101.814 E.86725
G1 X150.182 Y102.467 E.02503
G1 X133.534 Y85.819 E.90263
G1 X132.882 Y85.819 E.025
G1 X150.182 Y103.119 E.93798
G1 X150.182 Y103.771 E.025
G1 X132.229 Y85.819 E.97336
G1 X131.579 Y85.821 E.02492
G1 X150.182 Y104.423 E1.0086
G1 X150.182 Y105.075 E.025
G1 X131.005 Y85.898 E1.03975
G1 X130.803 Y85.973 E.00826
G1 X130.564 Y86.11 E.01056
G1 X150.182 Y105.727 E1.06363
G1 X150.182 Y106.379 E.025
G1 X130.22 Y86.417 E1.08231
M73 P2 R24
G1 X130.088 Y86.593 E.00843
G1 X129.973 Y86.803 E.00918
G1 X129.968 Y86.817 E.00057
G1 X150.182 Y107.031 E1.09598
G1 X150.182 Y107.683 E.025
G1 X129.834 Y87.335 E1.10324
G1 X129.818 Y87.972 E.02443
G1 X150.182 Y108.335 E1.10408
G1 X150.182 Y108.987 E.025
M73 P3 R24
G1 X129.818 Y88.624 E1.10408
G1 X129.818 Y89.276 E.025
G1 X150.182 Y109.639 E1.10408
G1 X150.182 Y110.291 E.025
G1 X129.818 Y89.928 E1.10408
G1 X129.818 Y90.58 E.025
G1 X150.182 Y110.943 E1.10408
G1 X150.182 Y111.595 E.025
G1 X129.818 Y91.232 E1.10408
G1 X129.818 Y91.884 E.025
G1 X150.182 Y112.247 E1.10408
G1 X150.182 Y112.899 E.025
G1 X129.818 Y92.536 E1.10408
G1 X129.818 Y93.188 E.025
G1 X150.182 Y113.551 E1.10408
G1 X150.182 Y114.204 E.02503
G1 X129.818 Y93.84 E1.10411
G1 X129.818 Y94.492 E.025
G1 X150.182 Y114.856 E1.10411
G1 X150.182 Y115.508 E.025
G1 X129.818 Y95.145 E1.10408
G1 X129.818 Y95.797 E.025
M73 P4 R24
G1 X150.182 Y116.16 E1.10408
G1 X150.182 Y116.812 E.025
G1 X129.818 Y96.449 E1.10408
G1 X129.818 Y97.101 E.025
G1 X150.182 Y117.464 E1.10408
G1 X150.182 Y118.116 E.025
G1 X129.818 Y97.753 E1.10408
G1 X129.818 Y98.405 E.025
G1 X150.182 Y118.768 E1.10408
G1 X150.182 Y119.42 E.025
G1 X129.818 Y99.057 E1.10408
G1 X129.818 Y99.709 E.025
G1 X150.182 Y120.072 E1.10408
G1 X150.182 Y120.724 E.025
G1 X129.818 Y100.361 E1.10408
G1 X129.818 Y101.013 E.025
G1 X150.182 Y121.376 E1.10408
G1 X150.182 Y122.028 E.025
G1 X129.818 Y101.665 E1.10408
G1 X129.818 Y102.317 E.025
G1 X150.166 Y122.665 E1.10324
G1 X150.11 Y122.973 E.012
M73 P5 R24
G1 X150.032 Y123.183 E.00859
G1 X129.818 Y102.969 E1.09598
G1 X129.818 Y103.621 E.025
G1 X149.78 Y123.583 E1.08231
G1 X149.599 Y123.768 E.00992
G1 X149.436 Y123.891 E.00783
G1 X129.818 Y104.273 E1.06366
G1 X129.818 Y104.925 E.025
G1 X148.995 Y124.102 E1.03975
G1 X148.739 Y124.161 E.01007
G1 X148.423 Y124.182 E.01214
G1 X129.818 Y105.577 E1.00874
G1 X129.818 Y106.229 E.025
G1 X147.771 Y124.182 E.97339
G1 X147.118 Y124.182 E.02503
G1 X129.818 Y106.882 E.93798
G1 X129.818 Y107.534 E.025
G1 X146.466 Y124.182 E.90263
G1 X145.814 Y124.182 E.025
G1 X129.818 Y108.186 E.86728
G1 X129.818 Y108.838 E.025
G1 X145.162 Y124.182 E.83193
G1 X144.51 Y124.182 E.025
M73 P6 R24
G1 X129.818 Y109.49 E.79658
G1 X129.818 Y110.142 E.025
G1 X143.858 Y124.182 E.76123
G1 X143.206 Y124.182 E.025
G1 X129.818 Y110.794 E.72588
G1 X129.818 Y111.446 E.025
G1 X142.554 Y124.182 E.69053
G1 X141.902 Y124.182 E.025
G1 X129.818 Y112.098 E.65518
G1 X129.818 Y112.75 E.025
G1 X141.25 Y124.182 E.61983
G1 X140.598 Y124.182 E.025
G1 X129.818 Y113.402 E.58448
G1 X129.818 Y114.054 E.025
G1 X139.946 Y124.182 E.54913
G1 X139.294 Y124.182 E.025
M73 P6 R23
G1 X129.818 Y114.706 E.51378
G1 X129.818 Y115.358 E.025
G1 X138.642 Y124.182 E.47843
G1 X137.99 Y124.182 E.025
G1 X129.818 Y116.01 E.44307
G1 X129.818 Y116.662 E.025
G1 X137.338 Y124.182 E.40772
G1 X136.686 Y124.182 E.025
G1 X129.818 Y117.314 E.37237
G1 X129.818 Y117.966 E.025
G1 X136.034 Y124.182 E.33702
G1 X135.381 Y124.182 E.02503
G1 X129.818 Y118.619 E.30162
G1 X129.818 Y119.271 E.025
G1 X134.729 Y124.182 E.26627
G1 X134.077 Y124.182 E.025
G1 X129.818 Y119.923 E.23092
G1 X129.818 Y120.575 E.025
M73 P7 R23
G1 X133.425 Y124.182 E.19557
G1 X132.773 Y124.182 E.025
G1 X129.818 Y121.227 E.16022
G1 X129.818 Y121.879 E.025
G1 X132.121 Y124.182 E.12487
G1 X131.463 Y124.176 E.02523
G1 X129.824 Y122.537 E.08886
G1 X129.839 Y122.739 E.00777
G1 X129.89 Y122.973 E.00918
G1 X129.973 Y123.197 E.00916
G1 X130.088 Y123.407 E.00918
G1 X130.223 Y123.588 E.00866
G1 X130.928 Y124.293 E.03822
M204 P1000
; stop printing object sensor_board_housing_top.stl id:1 copy 0
; printing object sensor_board_bottom.stl id:0 copy 0
G1 E-.64 F2100
;WIPE_START
G1 F9600
G1 X130.384 Y123.749 E-.16
;WIPE_END
G1 Z.4 F720
G1 X99.429 Y87.224 F12000
G1 Z.2 F720
G1 E.8 F1500
M204 P600
;TYPE:Perimeter
;WIDTH:0.499999
G1 F1200
G1 X99.598 Y86.632 E.0234
G1 X99.92 Y86.131 E.02263
G1 X100.37 Y85.741 E.02263
G1 X100.911 Y85.494 E.0226
G1 X101.532 Y85.407 E.02383
G1 X118.547 Y85.413 E.64668
G1 X119.089 Y85.494 E.02083
G1 X119.63 Y85.741 E.0226
G1 X120.08 Y86.131 E.02263
G1 X120.402 Y86.632 E.02263
G1 X120.538 Y87.057 E.01696
G1 X120.593 Y87.611 E.02116
G1 X120.593 Y122.389 E1.32178
G1 X120.569 Y122.798 E.01557
G1 X120.402 Y123.368 E.02257
G1 X120.08 Y123.869 E.02263
G1 X119.63 Y124.259 E.02263
G1 X119.089 Y124.506 E.0226
G1 X118.468 Y124.593 E.02383
G1 X101.611 Y124.593 E.64067
G1 X101.202 Y124.569 E.01557
G1 X100.632 Y124.402 E.02257
G1 X100.131 Y124.08 E.02263
G1 X99.741 Y123.63 E.02263
G1 X99.494 Y123.089 E.0226
G1 X99.407 Y122.468 E.02383
G1 X99.407 Y87.611 E1.32478
G1 X99.426 Y87.283 E.01249
M204 P1000
G1 X98.993 Y87.144 F12000
M204 P600
;TYPE:External perimeter
G1 F1200
G1 X99.054 Y86.782 E.01395
G1 X99.269 Y86.282 E.02069
G1 X99.574 Y85.831 E.02069
G1 X99.976 Y85.465 E.02066
G1 X100.441 Y85.181 E.02071
G1 X100.96 Y85.016 E.0207
G1 X101.516 Y84.95 E.02128
G1 X118.389 Y84.95 E.64128
G1 X118.681 Y84.964 E.01111
G1 X119.218 Y85.054 E.02069
G1 X119.718 Y85.269 E.02069
G1 X120.169 Y85.574 E.02069
G1 X120.535 Y85.976 E.02066
G1 X120.819 Y86.441 E.02071
G1 X120.984 Y86.96 E.0207
G1 X121.05 Y87.611 E.02487
G1 X121.05 Y122.389 E1.32178
G1 X121.036 Y122.681 E.01111
G1 X120.946 Y123.218 E.02069
G1 X120.731 Y123.718 E.02069
G1 X120.426 Y124.169 E.02069
G1 X120.024 Y124.535 E.02066
G1 X119.559 Y124.819 E.02071
G1 X119.04 Y124.984 E.0207
G1 X118.484 Y125.05 E.02128
G1 X101.611 Y125.05 E.64128
G1 X101.319 Y125.036 E.01111
G1 X100.782 Y124.946 E.02069
G1 X100.282 Y124.731 E.02069
G1 X99.831 Y124.426 E.02069
G1 X99.465 Y124.024 E.02066
G1 X99.181 Y123.559 E.02071
G1 X99.016 Y123.04 E.0207
G1 X98.95 Y122.484 E.02128
G1 X98.95 Y87.611 E1.32539
G1 X98.983 Y87.204 E.01552
M204 P1000
G1 X99.33 Y86.997 F12000
G1 E-.64 F2100
;WIPE_START
G1 F9600
G1 X99.054 Y86.782 E-.08893
G1 X99.189 Y86.468 E-.07107
;WIPE_END
G1 Z.4 F720
G1 X119.071 Y85.707 F12000
G1 Z.2 F720
M73 P8 R23
G1 E.8 F1500
M204 P600
;TYPE:Solid infill
;WIDTH:0.503993
G1 F1200
G1 X119.777 Y86.413 E.03828
G1 X119.912 Y86.593 E.00863
G1 X120.027 Y86.803 E.00918
G1 X120.11 Y87.027 E.00916
G1 X120.161 Y87.261 E.00918
G1 X120.176 Y87.463 E.00777
G1 X118.537 Y85.824 E.08886
G1 X117.879 Y85.818 E.02523
G1 X120.182 Y88.121 E.12487
G1 X120.182 Y88.773 E.025
G1 X117.227 Y85.818 E.16022
G1 X116.575 Y85.818 E.025
G1 X120.182 Y89.425 E.19557
G1 X120.182 Y90.077 E.025
G1 X115.923 Y85.818 E.23092
G1 X115.271 Y85.818 E.025
G1 X120.182 Y90.73 E.26629
G1 X120.182 Y91.382 E.025
G1 X114.618 Y85.818 E.30167
G1 X113.966 Y85.818 E.025
G1 X120.182 Y92.034 E.33702
G1 X120.182 Y92.686 E.025
G1 X113.314 Y85.818 E.37237
G1 X112.662 Y85.818 E.025
G1 X120.182 Y93.338 E.40772
G1 X120.182 Y93.99 E.025
G1 X112.01 Y85.818 E.44307
G1 X111.358 Y85.818 E.025
G1 X120.182 Y94.642 E.47843
G1 X120.182 Y95.294 E.025
G1 X110.706 Y85.818 E.51378
G1 X110.054 Y85.818 E.025
G1 X120.182 Y95.946 E.54913
G1 X120.182 Y96.598 E.025
G1 X109.402 Y85.818 E.58448
G1 X108.75 Y85.818 E.025
G1 X120.182 Y97.25 E.61983
G1 X120.182 Y97.902 E.025
G1 X108.098 Y85.818 E.65518
G1 X107.446 Y85.818 E.025
G1 X120.182 Y98.554 E.69053
G1 X120.182 Y99.206 E.025
G1 X106.794 Y85.818 E.72588
G1 X106.142 Y85.818 E.025
G1 X120.182 Y99.858 E.76123
G1 X120.182 Y100.51 E.025
G1 X105.49 Y85.818 E.79658
G1 X104.838 Y85.818 E.025
G1 X120.182 Y101.162 E.83193
G1 X120.182 Y101.814 E.025
G1 X104.186 Y85.818 E.86728
G1 X103.533 Y85.818 E.02503
G1 X120.182 Y102.467 E.90269
G1 X120.182 Y103.119 E.025
G1 X102.881 Y85.818 E.93804
G1 X102.229 Y85.818 E.025
G1 X120.182 Y103.771 E.97339
G1 X120.182 Y104.423 E.025
G1 X101.577 Y85.818 E1.00874
G1 X101.261 Y85.839 E.01214
M73 P9 R23
G1 X101.005 Y85.898 E.01007
G1 X120.182 Y105.075 E1.03975
G1 X120.182 Y105.727 E.025
G1 X100.564 Y86.11 E1.06363
G1 X100.401 Y86.232 E.00781
G1 X100.22 Y86.417 E.00992
G1 X120.182 Y106.379 E1.08231
G1 X120.182 Y107.031 E.025
G1 X99.968 Y86.817 E1.09598
G1 X99.89 Y87.027 E.00859
G1 X99.834 Y87.335 E.012
G1 X120.182 Y107.683 E1.10324
G1 X120.182 Y108.335 E.025
G1 X99.818 Y87.972 E1.10408
G1 X99.818 Y88.624 E.025
G1 X120.182 Y108.987 E1.10408
G1 X120.182 Y109.639 E.025
G1 X99.818 Y89.276 E1.10408
G1 X99.818 Y89.928 E.025
G1 X120.182 Y110.291 E1.10408
G1 X120.182 Y110.943 E.025
G1 X99.818 Y90.58 E1.10408
G1 X99.818 Y91.232 E.025
G1 X120.182 Y111.595 E1.10408
G1 X120.182 Y112.247 E.025
M73 P10 R23
G1 X99.818 Y91.884 E1.10408
G1 X99.818 Y92.536 E.025
G1 X120.182 Y112.899 E1.10408
G1 X120.182 Y113.551 E.025
G1 X99.818 Y93.188 E1.10408
G1 X99.818 Y93.84 E.025
G1 X120.182 Y114.204 E1.10411
G1 X120.182 Y114.856 E.025
G1 X99.818 Y94.492 E1.10411
G1 X99.818 Y95.145 E.02503
M73 P10 R22
G1 X120.182 Y115.508 E1.10408
G1 X120.182 Y116.16 E.025
G1 X99.818 Y95.797 E1.10408
G1 X99.818 Y96.449 E.025
G1 X120.182 Y116.812 E1.10408
G1 X120.182 Y117.464 E.025
G1 X99.818 Y97.101 E1.10408
G1 X99.818 Y97.753 E.025
G1 X120.182 Y118.116 E1.10408
G1 X120.182 Y118.768 E.025
M73 P11 R22
G1 X99.818 Y98.405 E1.10408
G1 X99.818 Y99.057 E.025
G1 X120.182 Y119.42 E1.10408
G1 X120.182 Y120.072 E.025
G1 X99.818 Y99.709 E1.10408
G1 X99.818 Y100.361 E.025
G1 X120.182 Y120.724 E1.10408
G1 X120.182 Y121.376 E.025
G1 X99.818 Y101.013 E1.10408
G1 X99.818 Y101.665 E.025
G1 X120.182 Y122.028 E1.10408
G1 X120.166 Y122.665 E.02443
G1 X99.818 Y102.317 E1.10324
G1 X99.818 Y102.969 E.025
G1 X120.032 Y123.183 E1.09598
