; generated by PrusaSlicer 2.6.1+win64 on 2024-03-29 at 17:35:41 UTC


;
;

;
;

;
;
; 

; external perimeters extrusion width = 0.45mm
; perimeters extrusion width = 0.45mm
; infill extrusion width = 0.45mm
; solid infill extrusion width = 0.45mm
; top infill extrusion width = 0.42mm
; first layer extrusion width = 0.50mm

; external perimeters extrusion width = 0.45mm
; perimeters extrusion width = 0.45mm
; infill extrusion width = 0.45mm
; solid infill extrusion width = 0.45mm
; top infill extrusion width = 0.42mm
; first layer extrusion width = 0.50mm

M73 P0 R289
M201 X2500 Y2500 Z200 E2500 ; sets maximum accelerations, mm/sec^2
M203 X200 Y200 Z40 E100 ; sets maximum feedrates, mm / sec
M204 P2000 R1200 T2000 ; sets acceleration (P, T) and retract acceleration (R), mm/sec^2
M205 X8.00 Y8.00 Z2.00 E10.00 ; sets the jerk limits, mm/sec
M205 S0 T0 ; sets the minimum extruding and travel feed rate, mm/sec
;TYPE:Custom
M17 ; enable steppers
M862.3 P "MK4" ; printer model check
M862.1 P0.4 ; nozzle diameter check
M555 X92 Y43 W66 H120

G90 ; use absolute coordinates
M83 ; extruder relative mode

M140 S60 ; set bed temp

M104 S170 ; set extruder temp for bed leveling
M109 R170 ; wait for temp


M84 E ; turn off E motor

G28 ; home all without mesh bed level

G1 X42 Y-4 Z5 F4800

M302 S160 ; lower cold extrusion limit to 160C


G1 E-2 F2400 ; retraction


M84 E ; turn off E motor

G29 P9 X10 Y-4 W32 H4

M106 S100

G0 Z40 F10000

M190 S60 ; wait for bed temp

M107

;
; MBL
;
M84 E ; turn off E motor
G29 P1 ; invalidate mbl & probe print area
G29 P1 X0 Y0 W50 H20 C ; probe near purge place
G29 P3.2 ; interpolate mbl probes
G29 P3.13 ; extrapolate mbl outside probe area
G29 A ; activate mbl

; prepare for purge
M104 S215
G0 X0 Y-4 Z15 F4800 ; move away and ready for the purge
M109 S215

G92 E0
M569 S0 E ; set spreadcycle mode for extruder

;
; Extrude purge line
;
G92 E0 ; reset extruder position
G1 E2 F2400 ; deretraction after the initial one before nozzle cleaning
G0 E7 X15 Z0.2 F500 ; purge
G0 X25 E4 F500 ; purge
G0 X35 E4 F650 ; purge
G0 X45 E4 F800 ; purge
G0 X48 Z0.05 F8000 ; wipe, move close to the bed
G0 X51 Z0.2 F8000 ; wipe, move quickly away from the bed

G92 E0
M221 S100 ; set flow to 100%
G21 ; set units to millimeters
G90 ; use absolute coordinates
M83 ; use relative distances for extrusion
M900 K0.05 ; Filament gcode



M142 S36 ; set heatbreak target temp
M107
;LAYER_CHANGE
;Z:0.2
;HEIGHT:0.2
;BEFORE_LAYER_CHANGE
G92 E0.0
;0.2


G1 E-.8 F2100
G1 Z.2 F720
;AFTER_LAYER_CHANGE
;0.2
; printing object hub_top.stl id:1 copy 0
G1 Z.4
G1 X132.907 Y50.13 F12000
G1 Z.2 F720
G1 E.8 F1500
M204 P600
;TYPE:Perimeter
;WIDTH:0.499999
G1 F1200
G1 X132.965 Y49.536 E.02268
G1 X133.12 Y49.094 E.0178
G1 X133.368 Y48.699 E.01773
G1 X133.699 Y48.368 E.01779
G1 X134.094 Y48.12 E.01773
G1 X134.536 Y47.965 E.0178
G1 X135.051 Y47.907 E.0197
G1 X154.949 Y47.907 E.75625
G1 X155.464 Y47.965 E.0197
G1 X155.906 Y48.12 E.0178
G1 X156.301 Y48.368 E.01773
G1 X156.632 Y48.699 E.01779
G1 X156.88 Y49.094 E.01773
G1 X157.035 Y49.536 E.0178
G1 X157.093 Y50.178 E.0245
G1 X157.093 Y159.949 E4.17199
G1 X157.035 Y160.464 E.0197
G1 X156.88 Y160.906 E.0178
G1 X156.632 Y161.301 E.01773
G1 X156.301 Y161.632 E.01779
G1 X155.906 Y161.88 E.01773
G1 X155.464 Y162.035 E.0178
G1 X154.949 Y162.093 E.0197
G1 X135.051 Y162.093 E.75625
G1 X134.536 Y162.035 E.0197
G1 X134.094 Y161.88 E.0178
G1 X133.699 Y161.632 E.01773
G1 X133.368 Y161.301 E.01779
G1 X133.12 Y160.906 E.01773
G1 X132.965 Y160.464 E.0178
G1 X132.907 Y159.949 E.0197
G1 X132.907 Y50.19 E4.17153
M204 P1000
G1 X132.45 Y50.13 F12000
M204 P600
;TYPE:External perimeter
G1 F1200
G1 X132.517 Y49.433 E.02661
G1 X132.705 Y48.895 E.02166
G1 X133.009 Y48.412 E.02169
G1 X133.412 Y48.009 E.02166
G1 X133.895 Y47.705 E.02169
G1 X134.433 Y47.517 E.02166
G1 X135.025 Y47.45 E.02264
M73 P0 R288
G1 X154.975 Y47.45 E.75823
G1 X155.567 Y47.517 E.02264
G1 X156.105 Y47.705 E.02166
G1 X156.588 Y48.009 E.02169
G1 X156.991 Y48.412 E.02166
G1 X157.295 Y48.895 E.02169
G1 X157.483 Y49.433 E.02166
G1 X157.55 Y50.178 E.02843
G1 X157.55 Y159.975 E4.17297
G1 X157.483 Y160.567 E.02264
G1 X157.295 Y161.105 E.02166
G1 X156.991 Y161.588 E.02169
G1 X156.588 Y161.991 E.02166
G1 X156.105 Y162.295 E.02169
G1 X155.567 Y162.483 E.02166
G1 X154.975 Y162.55 E.02264
G1 X135.025 Y162.55 E.75823
G1 X134.433 Y162.483 E.02264
G1 X133.895 Y162.295 E.02166
G1 X133.412 Y161.991 E.02169
G1 X133.009 Y161.588 E.02166
G1 X132.705 Y161.105 E.02169
G1 X132.517 Y160.567 E.02166
G1 X132.45 Y159.975 E.02264
G1 X132.45 Y50.19 E4.17252
M204 P1000
G1 X132.808 Y49.952 F12000
G1 E-.64 F2100
;WIPE_START
G1 F9600
G1 X132.517 Y49.433 E-.15793
G1 X132.52 Y49.424 E-.00207
;WIPE_END
G1 Z.4 F720
G1 X156.78 Y49.429 F12000
G1 Z.2 F720
G1 E.8 F1500
M204 P600
;TYPE:Solid infill
;WIDTH:0.500845
G1 F1200
G1 X156.041 Y48.691 E.03977
G1 X155.726 Y48.492 E.01419
G1 X155.372 Y48.369 E.01427
G1 X155.034 Y48.331 E.01295
G1 X156.669 Y49.966 E.08804
G1 X156.682 Y50.626 E.02514
G1 X154.374 Y48.318 E.12428
G1 X153.726 Y48.318 E.02467
G1 X156.682 Y51.274 E.15918
G1 X156.682 Y51.921 E.02464
G1 X153.079 Y48.318 E.19402
G1 X152.431 Y48.318 E.02467
G1 X156.682 Y52.569 E.22891
G1 X156.682 Y53.216 E.02464
G1 X151.784 Y48.318 E.26375
G1 X151.136 Y48.318 E.02467
G1 X156.682 Y53.864 E.29864
G1 X156.682 Y54.512 E.02467
G1 X150.488 Y48.318 E.33354
G1 X149.841 Y48.318 E.02464
G1 X156.682 Y55.159 E.36838
G1 X156.682 Y55.807 E.02467
G1 X149.193 Y48.318 E.40327
G1 X148.546 Y48.318 E.02464
G1 X156.682 Y56.454 E.43811
G1 X156.682 Y57.102 E.02467
G1 X147.898 Y48.318 E.473
G1 X147.25 Y48.318 E.02467
G1 X156.682 Y57.75 E.5079
G1 X156.682 Y58.397 E.02464
G1 X146.603 Y48.318 E.54274
G1 X145.955 Y48.318 E.02467
G1 X156.682 Y59.045 E.57763
G1 X156.682 Y59.692 E.02464
G1 X145.308 Y48.318 E.61247
G1 X144.66 Y48.318 E.02467
G1 X156.682 Y60.34 E.64737
G1 X156.682 Y60.988 E.02467
G1 X144.012 Y48.318 E.68226
G1 X143.365 Y48.318 E.02464
G1 X156.682 Y61.635 E.7171
G1 X156.682 Y62.283 E.02467
G1 X142.717 Y48.318 E.75199
G1 X142.069 Y48.318 E.02467
G1 X156.682 Y62.931 E.78689
G1 X156.682 Y63.578 E.02464
G1 X141.422 Y48.318 E.82173
G1 X140.774 Y48.318 E.02467
G1 X156.682 Y64.226 E.85662
G1 X156.682 Y64.873 E.02464
G1 X140.127 Y48.318 E.89146
G1 X139.479 Y48.318 E.02467
G1 X156.682 Y65.521 E.92636
G1 X156.682 Y66.169 E.02467
G1 X138.831 Y48.318 E.96125
G1 X138.184 Y48.318 E.02464
G1 X156.682 Y66.816 E.99609
G1 X156.682 Y67.464 E.02467
G1 X137.536 Y48.318 E1.03098
G1 X136.889 Y48.318 E.02464
G1 X156.682 Y68.111 E1.06582
G1 X156.682 Y68.759 E.02467
G1 X136.241 Y48.318 E1.10072
G1 X135.593 Y48.318 E.02467
G1 X156.682 Y69.407 E1.13561
G1 X156.682 Y70.054 E.02464
G1 X134.959 Y48.331 E1.16975
G1 X134.628 Y48.369 E.01269
G1 X134.421 Y48.441 E.00835
G1 X156.682 Y70.702 E1.19872
G1 X156.682 Y71.349 E.02464
G1 X133.998 Y48.666 E1.22147
G1 X133.672 Y48.988 E.01745
G1 X156.682 Y71.997 E1.23903
G1 X156.682 Y72.645 E.02467
G1 X133.445 Y49.408 E1.25128
G1 X133.369 Y49.628 E.00886
G1 X133.333 Y49.944 E.01211
G1 X156.682 Y73.292 E1.25728
G1 X156.682 Y73.94 E.02467
G1 X133.318 Y50.577 E1.25809
G1 X133.318 Y51.224 E.02464
G1 X156.682 Y74.587 E1.25809
G1 X156.682 Y75.235 E.02467
G1 X133.318 Y51.872 E1.25809
G1 X133.318 Y52.519 E.02464
G1 X156.682 Y75.883 E1.25812
G1 X156.682 Y76.53 E.02464
G1 X133.318 Y53.167 E1.25809
G1 X133.318 Y53.815 E.02467
G1 X156.682 Y77.178 E1.25809
G1 X156.682 Y77.825 E.02464
G1 X133.318 Y54.462 E1.25809
G1 X133.318 Y55.11 E.02467
G1 X156.682 Y78.473 E1.25809
G1 X156.682 Y79.121 E.02467
M73 P0 R287
G1 X133.318 Y55.757 E1.25812
G1 X133.318 Y56.405 E.02467
G1 X156.682 Y79.768 E1.25809
G1 X156.682 Y80.416 E.02467
G1 X133.318 Y57.053 E1.25809
G1 X133.318 Y57.7 E.02464
G1 X156.682 Y81.063 E1.25809
G1 X156.682 Y81.711 E.02467
G1 X133.318 Y58.348 E1.25809
G1 X133.318 Y58.996 E.02467
G1 X156.682 Y82.359 E1.25809
G1 X156.682 Y83.006 E.02464
G1 X133.318 Y59.643 E1.25809
G1 X133.318 Y60.291 E.02467
G1 X156.682 Y83.654 E1.25809
G1 X156.682 Y84.301 E.02464
G1 X133.318 Y60.938 E1.25809
G1 X133.318 Y61.586 E.02467
G1 X156.682 Y84.949 E1.25809
G1 X156.682 Y85.597 E.02467
G1 X133.318 Y62.234 E1.25809
G1 X133.318 Y62.881 E.02464
G1 X156.682 Y86.244 E1.25809
G1 X156.682 Y86.892 E.02467
G1 X133.318 Y63.529 E1.25809
G1 X133.318 Y64.176 E.02464
G1 X156.682 Y87.539 E1.25809
G1 X156.682 Y88.187 E.02467
G1 X133.318 Y64.824 E1.25809
G1 X133.318 Y65.472 E.02467
G1 X156.682 Y88.835 E1.25809
G1 X156.682 Y89.482 E.02464
G1 X133.318 Y66.119 E1.25809
G1 X133.318 Y66.767 E.02467
G1 X156.682 Y90.13 E1.25809
G1 X156.682 Y90.777 E.02464
G1 X133.318 Y67.414 E1.25809
G1 X133.318 Y68.062 E.02467
G1 X156.682 Y91.425 E1.25809
G1 X156.682 Y92.073 E.02467
G1 X133.318 Y68.71 E1.25809
G1 X133.318 Y69.357 E.02464
G1 X156.682 Y92.72 E1.25809
G1 X156.682 Y93.368 E.02467
G1 X133.318 Y70.005 E1.25809
G1 X133.318 Y70.652 E.02464
G1 X156.682 Y94.015 E1.25809
G1 X156.682 Y94.663 E.02467
G1 X133.318 Y71.3 E1.25809
G1 X133.318 Y71.948 E.02467
G1 X156.682 Y95.311 E1.25809
G1 X156.682 Y95.958 E.02464
G1 X133.318 Y72.595 E1.25809
G1 X133.318 Y73.243 E.02467
G1 X156.682 Y96.606 E1.25809
G1 X156.682 Y97.254 E.02467
G1 X133.318 Y73.89 E1.25812
G1 X133.318 Y74.538 E.02467
G1 X156.682 Y97.901 E1.25809
G1 X156.682 Y98.549 E.02467
G1 X133.318 Y75.186 E1.25809
G1 X133.318 Y75.833 E.02464
G1 X156.682 Y99.196 E1.25809
G1 X156.682 Y99.844 E.02467
G1 X133.318 Y76.481 E1.25809
G1 X133.318 Y77.128 E.02464
G1 X156.682 Y100.492 E1.25812
G1 X156.682 Y101.139 E.02464
G1 X133.318 Y77.776 E1.25809
G1 X133.318 Y78.424 E.02467
M73 P0 R286
G1 X156.682 Y101.787 E1.25809
G1 X156.682 Y102.434 E.02464
G1 X133.318 Y79.071 E1.25809
G1 X133.318 Y79.719 E.02467
G1 X156.682 Y103.082 E1.25809
G1 X156.682 Y103.73 E.02467
G1 X133.318 Y80.366 E1.25812
G1 X133.318 Y81.014 E.02467
G1 X156.682 Y104.377 E1.25809
G1 X156.682 Y105.025 E.02467
G1 X133.318 Y81.662 E1.25809
G1 X133.318 Y82.309 E.02464
G1 X156.682 Y105.672 E1.25809
G1 X156.682 Y106.32 E.02467
G1 X133.318 Y82.957 E1.25809
G1 X133.318 Y83.604 E.02464
G1 X156.682 Y106.968 E1.25812
G1 X156.682 Y107.615 E.02464
G1 X133.318 Y84.252 E1.25809
G1 X133.318 Y84.9 E.02467
G1 X156.682 Y108.263 E1.25809
G1 X156.682 Y108.91 E.02464
G1 X133.318 Y85.547 E1.25809
G1 X133.318 Y86.195 E.02467
G1 X156.682 Y109.558 E1.25809
G1 X156.682 Y110.206 E.02467
G1 X133.318 Y86.842 E1.25812
G1 X133.318 Y87.49 E.02467
G1 X156.682 Y110.853 E1.25809
G1 X156.682 Y111.501 E.02467
G1 X133.318 Y88.138 E1.25809
G1 X133.318 Y88.785 E.02464
G1 X156.682 Y112.148 E1.25809
G1 X156.682 Y112.796 E.02467
G1 X133.318 Y89.433 E1.25809
G1 X133.318 Y90.08 E.02464
G1 X156.682 Y113.444 E1.25812
G1 X156.682 Y114.091 E.02464
G1 X133.318 Y90.728 E1.25809
G1 X133.318 Y91.376 E.02467
M73 P1 R286
G1 X156.682 Y114.739 E1.25809
G1 X156.682 Y115.386 E.02464
G1 X133.318 Y92.023 E1.25809
G1 X133.318 Y92.671 E.02467
G1 X156.682 Y116.034 E1.25809
G1 X156.682 Y116.682 E.02467
G1 X133.318 Y93.319 E1.25809
G1 X133.318 Y93.966 E.02464
G1 X156.682 Y117.329 E1.25809
G1 X156.682 Y117.977 E.02467
G1 X133.318 Y94.614 E1.25809
G1 X133.318 Y95.261 E.02464
G1 X156.682 Y118.624 E1.25809
G1 X156.682 Y119.272 E.02467
G1 X133.318 Y95.909 E1.25809
G1 X133.318 Y96.557 E.02467
G1 X156.682 Y119.92 E1.25809
G1 X156.682 Y120.567 E.02464
G1 X133.318 Y97.204 E1.25809
G1 X133.318 Y97.852 E.02467
G1 X156.682 Y121.215 E1.25809
G1 X156.682 Y121.862 E.02464
G1 X133.318 Y98.499 E1.25809
G1 X133.318 Y99.147 E.02467
G1 X156.682 Y122.51 E1.25809
G1 X156.682 Y123.158 E.02467
G1 X133.318 Y99.795 E1.25809
G1 X133.318 Y100.442 E.02464
G1 X156.682 Y123.805 E1.25809
G1 X156.682 Y124.453 E.02467
M73 P1 R285
G1 X133.318 Y101.09 E1.25809
G1 X133.318 Y101.737 E.02464
G1 X156.682 Y125.1 E1.25809
G1 X156.682 Y125.748 E.02467
G1 X133.318 Y102.385 E1.25809
G1 X133.318 Y103.033 E.02467
G1 X156.682 Y126.396 E1.25809
G1 X156.682 Y127.043 E.02464
G1 X133.318 Y103.68 E1.25809
G1 X133.318 Y104.328 E.02467
G1 X156.682 Y127.691 E1.25809
G1 X156.682 Y128.338 E.02464
G1 X133.318 Y104.975 E1.25809
G1 X133.318 Y105.623 E.02467
G1 X156.682 Y128.986 E1.25809
G1 X156.682 Y129.634 E.02467
G1 X133.318 Y106.271 E1.25809
G1 X133.318 Y106.918 E.02464
G1 X156.682 Y130.281 E1.25809
G1 X156.682 Y130.929 E.02467
G1 X133.318 Y107.566 E1.25809
G1 X133.318 Y108.213 E.02464
G1 X156.682 Y131.577 E1.25812
G1 X156.682 Y132.224 E.02464
G1 X133.318 Y108.861 E1.25809
G1 X133.318 Y109.509 E.02467
G1 X156.682 Y132.872 E1.25809
G1 X156.682 Y133.519 E.02464
G1 X133.318 Y110.156 E1.25809
G1 X133.318 Y110.804 E.02467
G1 X156.682 Y134.167 E1.25809
G1 X156.682 Y134.815 E.02467
G1 X133.318 Y111.451 E1.25812
G1 X133.318 Y112.099 E.02467
G1 X156.682 Y135.462 E1.25809
G1 X156.682 Y136.11 E.02467
G1 X133.318 Y112.747 E1.25809
G1 X133.318 Y113.394 E.02464
G1 X156.682 Y136.757 E1.25809
G1 X156.682 Y137.405 E.02467
G1 X133.318 Y114.042 E1.25809
G1 X133.318 Y114.689 E.02464
G1 X156.682 Y138.053 E1.25812
G1 X156.682 Y138.7 E.02464
G1 X133.318 Y115.337 E1.25809
G1 X133.318 Y115.985 E.02467
G1 X156.682 Y139.348 E1.25809
G1 X156.682 Y139.995 E.02464
G1 X133.318 Y116.632 E1.25809
G1 X133.318 Y117.28 E.02467
G1 X156.682 Y140.643 E1.25809
G1 X156.682 Y141.291 E.02467
G1 X133.318 Y117.927 E1.25812
G1 X133.318 Y118.575 E.02467
G1 X156.682 Y141.938 E1.25809
G1 X156.682 Y142.586 E.02467
G1 X133.318 Y119.223 E1.25809
G1 X133.318 Y119.87 E.02464
G1 X156.682 Y143.233 E1.25809
G1 X156.682 Y143.881 E.02467
G1 X133.318 Y120.518 E1.25809
G1 X133.318 Y121.165 E.02464
G1 X156.682 Y144.529 E1.25812
G1 X156.682 Y145.176 E.02464
G1 X133.318 Y121.813 E1.25809
G1 X133.318 Y122.461 E.02467
G1 X156.682 Y145.824 E1.25809
G1 X156.682 Y146.471 E.02464
G1 X133.318 Y123.108 E1.25809
G1 X133.318 Y123.756 E.02467
G1 X156.682 Y147.119 E1.25809
G1 X156.682 Y147.767 E.02467
M73 P1 R284
G1 X133.318 Y124.403 E1.25812
G1 X133.318 Y125.051 E.02467
G1 X156.682 Y148.414 E1.25809
G1 X156.682 Y149.062 E.02467
G1 X133.318 Y125.699 E1.25809
G1 X133.318 Y126.346 E.02464
G1 X156.682 Y149.709 E1.25809
G1 X156.682 Y150.357 E.02467
G1 X133.318 Y126.994 E1.25809
G1 X133.318 Y127.642 E.02467
G1 X156.682 Y151.005 E1.25809
G1 X156.682 Y151.652 E.02464
G1 X133.318 Y128.289 E1.25809
G1 X133.318 Y128.937 E.02467
G1 X156.682 Y152.3 E1.25809
G1 X156.682 Y152.947 E.02464
G1 X133.318 Y129.584 E1.25809
G1 X133.318 Y130.232 E.02467
G1 X156.682 Y153.595 E1.25809
G1 X156.682 Y154.243 E.02467
G1 X133.318 Y130.88 E1.25809
G1 X133.318 Y131.527 E.02464
G1 X156.682 Y154.89 E1.25809
G1 X156.682 Y155.538 E.02467
G1 X133.318 Y132.175 E1.25809
G1 X133.318 Y132.822 E.02464
G1 X156.682 Y156.185 E1.25809
G1 X156.682 Y156.833 E.02467
G1 X133.318 Y133.47 E1.25809
G1 X133.318 Y134.118 E.02467
G1 X156.682 Y157.481 E1.25809
G1 X156.682 Y158.128 E.02464
G1 X133.318 Y134.765 E1.25809
G1 X133.318 Y135.413 E.02467
G1 X156.682 Y158.776 E1.25809
G1 X156.682 Y159.423 E.02464
G1 X133.318 Y136.06 E1.25809
G1 X133.318 Y136.708 E.02467
G1 X156.667 Y160.056 E1.25728
G1 X156.631 Y160.372 E.01211
G1 X156.555 Y160.592 E.00886
G1 X133.318 Y137.356 E1.25125
G1 X133.318 Y138.003 E.02464
G1 X156.328 Y161.012 E1.23903
G1 X156.002 Y161.334 E.01745
G1 X133.318 Y138.651 E1.22147
G1 X133.318 Y139.298 E.02464
G1 X155.579 Y161.559 E1.19872
G1 X155.372 Y161.631 E.00835
G1 X155.041 Y161.669 E.01269
G1 X133.318 Y139.946 E1.16975
G1 X133.318 Y140.594 E.02467
G1 X154.406 Y161.682 E1.13556
G1 X153.759 Y161.682 E.02464
G1 X133.318 Y141.241 E1.10072
G1 X133.318 Y141.889 E.02467
G1 X153.111 Y161.682 E1.06582
G1 X152.464 Y161.682 E.02464
G1 X133.318 Y142.536 E1.03098
G1 X133.318 Y143.184 E.02467
G1 X151.816 Y161.682 E.99609
G1 X151.168 Y161.682 E.02467
G1 X133.318 Y143.832 E.9612
G1 X133.318 Y144.479 E.02464
G1 X150.521 Y161.682 E.92636
G1 X149.873 Y161.682 E.02467
G1 X133.318 Y145.127 E.89146
G1 X133.318 Y145.774 E.02464
G1 X149.226 Y161.682 E.85662
G1 X148.578 Y161.682 E.02467
G1 X133.318 Y146.422 E.82173
G1 X133.318 Y147.07 E.02467
G1 X147.93 Y161.682 E.78683
G1 X147.283 Y161.682 E.02464
M73 P1 R283
G1 X133.318 Y147.717 E.75199
G1 X133.318 Y148.365 E.02467
G1 X146.635 Y161.682 E.7171
