; generated by PrusaSlicer 2.6.1+win64 on 2024-04-06 at 18:31:39 UTC


;
;

;
;

;
;
; 

; external perimeters extrusion width = 0.45mm
; perimeters extrusion width = 0.45mm
; infill extrusion width = 0.45mm
; solid infill extrusion width = 0.45mm
; top infill extrusion width = 0.42mm
; first layer extrusion width = 0.50mm

M73 P0 R11
M201 X2500 Y2500 Z200 E2500 ; sets maximum accelerations, mm/sec^2
M203 X200 Y200 Z40 E100 ; sets maximum feedrates, mm / sec
M204 P2000 R1200 T2000 ; sets acceleration (P, T) and retract acceleration (R), mm/sec^2
M205 X8.00 Y8.00 Z2.00 E10.00 ; sets the jerk limits, mm/sec
M205 S0 T0 ; sets the minimum extruding and travel feed rate, mm/sec
;TYPE:Custom
M17 ; enable steppers
M862.3 P "MK4" ; printer model check
M862.1 P0.4 ; nozzle diameter check
M555 X116.375 Y90.6 W32 H24.8

G90 ; use absolute coordinates
M83 ; extruder relative mode

M140 S60 ; set bed temp

M104 S170 ; set extruder temp for bed leveling
M109 R170 ; wait for temp


M84 E ; turn off E motor

G28 ; home all without mesh bed level

G1 X42 Y-4 Z5 F4800

M302 S160 ; lower cold extrusion limit to 160C


G1 E-2 F2400 ; retraction


M84 E ; turn off E motor

G29 P9 X10 Y-4 W32 H4

M106 S100

G0 Z40 F10000

M190 S60 ; wait for bed temp

M107

;
; MBL
;
M84 E ; turn off E motor
G29 P1 ; invalidate mbl & probe print area
G29 P1 X0 Y0 W50 H20 C ; probe near purge place
G29 P3.2 ; interpolate mbl probes
G29 P3.13 ; extrapolate mbl outside probe area
G29 A ; activate mbl

; prepare for purge
M104 S215
G0 X0 Y-4 Z15 F4800 ; move away and ready for the purge
M109 S215

G92 E0
M569 S0 E ; set spreadcycle mode for extruder

;
; Extrude purge line
;
G92 E0 ; reset extruder position
G1 E2 F2400 ; deretraction after the initial one before nozzle cleaning
G0 E7 X15 Z0.2 F500 ; purge
G0 X25 E4 F500 ; purge
G0 X35 E4 F650 ; purge
G0 X45 E4 F800 ; purge
G0 X48 Z0.05 F8000 ; wipe, move close to the bed
G0 X51 Z0.2 F8000 ; wipe, move quickly away from the bed

G92 E0
M221 S100 ; set flow to 100%
G21 ; set units to millimeters
G90 ; use absolute coordinates
M83 ; use relative distances for extrusion
M900 K0.05 ; Filament gcode



M142 S36 ; set heatbreak target temp
M107
;LAYER_CHANGE
;Z:0.2
;HEIGHT:0.2
;BEFORE_LAYER_CHANGE
G92 E0.0
;0.2


G1 E-.8 F2100
G1 Z.2 F720
;AFTER_LAYER_CHANGE
;0.2
; printing object clip attachment.stl id:0 copy 0
G1 Z.4
G1 X116.964 Y99.811 F12000
G1 Z.2 F720
G1 E.8 F1500
M204 P600
;TYPE:External perimeter
;WIDTH:0.42146
M73 P1 R11
G1 F1200
G1 X116.964 Y115.189 E.48403
G1 X116.586 Y115.189 E.0119
G1 X116.586 Y99.811 E.48403
G1 X116.904 Y99.811 E.01001
M204 P1000
G1 X116.961 Y100.211 F12000
G1 E-.64 F2100
;WIPE_START
G1 F9600
G1 X116.907 Y100.581 E-.16
;WIPE_END
G1 Z.4 F720
G1 X120.321 Y95.791 F12000
G1 Z.2 F720
G1 E.8 F1500
M204 P600
;TYPE:Perimeter
;WIDTH:0.346212
G1 F1200
G1 X120.175 Y95.827 E.00379
;WIDTH:0.322592
G1 X119.934 Y96.018 E.00715
;WIDTH:0.328174
G1 X119.818 Y96.248 E.00611
;WIDTH:0.36438
G1 X119.786 Y96.658 E.01099
G1 X119.786 Y111.342 E.3925
G1 X119.753 Y111.682 E.00913
;WIDTH:0.343527
G1 X119.639 Y111.971 E.00777
G1 X119.454 Y112.218 E.00771
G1 X119.454 Y111.934 E.0071
;WIDTH:0.36438
G1 X119.464 Y96.647 E.40861
G1 X119.547 Y96.163 E.01313
;WIDTH:0.328174
G1 X119.721 Y95.855 E.00839
;WIDTH:0.32267
G1 X120.022 Y95.593 E.00928
;WIDTH:0.344091
G1 X120.305 Y95.482 E.00761
;WIDTH:0.364381
G1 X120.683 Y95.439 E.01017
;WIDTH:0.364678
G1 X130.928 Y95.439 E.2741
;WIDTH:0.412901
G1 X131.112 Y95.456 E.00568
;WIDTH:0.461123
G1 X131.297 Y95.474 E.00646
;WIDTH:0.509346
G1 X131.481 Y95.491 E.00717
;WIDTH:0.557568
G1 X131.666 Y95.509 E.00795
G1 X132.108 Y95.482 E.01895
G1 X131.877 Y95.953 E.02245
G1 X131.601 Y96.593 E.02983
G1 X131.507 Y95.961 E.02734
G1 X131.429 Y95.921 E.00375
;WIDTH:0.518835
G1 X131.35 Y95.88 E.00352
;WIDTH:0.480101
G1 X131.272 Y95.84 E.00319
;WIDTH:0.441368
G1 X131.193 Y95.8 E.00293
;WIDTH:0.402634
G1 X130.928 Y95.761 E.00801
;WIDTH:0.364678
G1 X120.683 Y95.761 E.2741
;WIDTH:0.364381
G1 X120.404 Y95.77 E.00746
;WIDTH:0.346212
G1 X120.379 Y95.776 E.00065
M204 P1000
G1 X120.404 Y96.15 F12000
M204 P600
;TYPE:External perimeter
;WIDTH:0.499999
G1 F1200
G1 X120.242 Y96.217 E.00666
G1 X120.175 Y96.379 E.00666
G1 X120.175 Y111.342 E.56869
G1 X120.129 Y111.731 E.01489
G1 X119.989 Y112.116 E.01557
M73 P2 R11
G1 X119.749 Y112.455 E.01579
G1 X119.421 Y112.723 E.0161
G1 X119.075 Y112.874 E.01435
G1 X119.075 Y96.658 E.61631
G1 X119.116 Y96.31 E.01332
G1 X119.253 Y95.902 E.01636
G1 X119.491 Y95.558 E.0159
G1 X119.798 Y95.301 E.01522
G1 X120.16 Y95.132 E.01518
G1 X120.647 Y95.05 E.01877
G1 X131.232 Y95.049 E.4023
G1 X132.198 Y94.989 E.03678
G1 X132.626 Y94.886 E.01673
G1 X132.936 Y94.934 E.01192
G1 X132.823 Y95.141 E.00896
G1 X132.321 Y96.151 E.04287
G1 X131.916 Y97.059 E.03779
G1 X131.546 Y97.982 E.03779
G1 X131.28 Y98.727 E.03007
;WIDTH:0.537716
G1 X131.231 Y98.813 E.00407
;WIDTH:0.575433
G1 X131.182 Y98.898 E.00434
;WIDTH:0.61315
G1 X131.133 Y98.984 E.00469
;WIDTH:0.650866
G1 X131.085 Y99.069 E.00493
G1 X130.853 Y99.851 E.04123
;WIDTH:0.620402
G1 X130.607 Y100.816 E.04782
;WIDTH:0.583855
G1 X130.397 Y101.79 E.04482
;WIDTH:0.547108
G1 X130.225 Y102.775 E.04192
;WIDTH:0.510341
G1 X130.098 Y103.764 E.03875
;WIDTH:0.500389
G1 X130.015 Y104.754 E.03779
;WIDTH:0.499887
G1 X129.97 Y105.745 E.03769
;WIDTH:0.500586
G1 X129.965 Y106.899 E.04392
G1 X129.989 Y107.725 E.03145
;WIDTH:0.499576
G1 X130.054 Y108.706 E.03733
;WIDTH:0.498128
G1 X130.141 Y109.68 E.03701
;WIDTH:0.4787
G1 X130.249 Y110.502 E.03004
;WIDTH:0.460448
G1 X130.321 Y111.211 E.02474
;WIDTH:0.441035
G1 X129.978 Y111.226 E.01137
G1 X129.949 Y111.173 E.002
;WIDTH:0.460448
G1 X129.835 Y110.561 E.02161
;WIDTH:0.485235
G1 X129.685 Y109.567 E.03697
;WIDTH:0.501901
G1 X129.583 Y108.571 E.03821
;WIDTH:0.502146
G1 X129.524 Y107.573 E.03817
G1 X129.507 Y106.724 E.03243
G1 X129.517 Y105.569 E.04411
G1 X129.569 Y104.572 E.03812
;WIDTH:0.503383
G1 X129.656 Y103.577 E.03824
;WIDTH:0.51094
G1 X129.765 Y102.69 E.03478
;WIDTH:0.553561
G1 X129.918 Y101.585 E.04737
;WIDTH:0.588722
G1 X130.096 Y100.607 E.04511
;WIDTH:0.624209
G1 X130.311 Y99.634 E.04816
;WIDTH:0.650866
G1 X130.499 Y98.907 E.03796
G1 X130.506 Y98.802 E.00532
;WIDTH:0.61315
G1 X130.514 Y98.697 E.00499
;WIDTH:0.575433
G1 X130.521 Y98.593 E.00462
;WIDTH:0.537716
G1 X130.528 Y98.488 E.00433
;WIDTH:0.499999
G1 X130.749 Y97.695 E.03129
G1 X131.146 Y96.448 E.04974
G1 X131.105 Y96.234 E.00828
G1 X130.928 Y96.15 E.00745
G1 X120.464 Y96.15 E.3977
M204 P1000
G1 X120.28 Y96.026 F12000
G1 E-.64 F2100
;WIPE_START
G1 F9600
G1 X120.242 Y96.217 E-.04819
G1 X120.175 Y96.379 E-.03643
G1 X120.175 Y96.742 E-.07538
;WIPE_END
G1 Z.4 F720
G1 X130.908 Y98.594 F12000
G1 Z.2 F720
G1 E.8 F1500
M204 P600
;TYPE:Perimeter
;WIDTH:0.403362
G1 F1200
G1 X131.028 Y98.217 E.01186
;WIDTH:0.431974
G1 X131.148 Y97.84 E.0128
;WIDTH:0.469457
G1 X131.318 Y97.364 E.01793
;WIDTH:0.50694
G1 X131.489 Y96.888 E.01951
;WIDTH:0.541614
G1 X131.601 Y96.593 E.01308
M204 P1000
; stop printing object clip attachment.stl id:0 copy 0
M106 S127.5
;LAYER_CHANGE
;Z:0.4
;HEIGHT:0.2
;BEFORE_LAYER_CHANGE
G92 E0.0
;0.4


G1 E-.64 F2100
;WIPE_START
G1 F9600
G1 X131.489 Y96.888 E-.06557
G1 X131.335 Y97.316 E-.09443
;WIPE_END
G1 Z.4 F720
;AFTER_LAYER_CHANGE
;0.4
M104 S210 ; set temperature
; printing object clip attachment.stl id:0 copy 0
G1 Z.6
G1 X116.964 Y99.811 F12000
G1 Z.4 F720
G1 E.8 F1500
M204 P800
;TYPE:External perimeter
;WIDTH:0.42146
G1 F1665

G1 X116.964 Y100.232 E.01325
G1 X116.964 Y114.768 E.45753
G1 X116.964 Y115.189 E.01325
G1 X116.586 Y115.189 E.0119
G1 X116.586 Y114.768 E.01325
G1 X116.586 Y100.232 E.45753
G1 X116.586 Y99.811 E.01325
G1 X116.904 Y99.811 E.01001

M204 P1000
G1 X116.961 Y100.211 F12000
G1 E-.64 F2100
;WIPE_START
G1 F9600
G1 X116.907 Y100.581 E-.16
;WIPE_END
G1 Z.6 F720
G1 X120.521 Y95.914 F12000
G1 Z.4 F720
G1 E.8 F1500
;TYPE:Perimeter
;WIDTH:0.614381
G1 F1665
G1 X120.341 Y95.944 E.00867
;WIDTH:0.605729
G1 X120.117 Y96.092 E.01256
G1 X119.969 Y96.314 E.01249
;WIDTH:0.614381
G1 X119.911 Y96.667 E.017
G1 X119.911 Y111.335 E.69698
G1 X119.876 Y111.698 E.01733
;WIDTH:0.592964
G1 X119.754 Y112.018 E.01566
G1 X119.547 Y112.3 E.016
M73 P3 R11
G1 X119.329 Y112.473 E.01273
G1 X119.329 Y111.934 E.02465
;WIDTH:0.614381
G1 X119.339 Y96.667 E.72544
G1 X119.384 Y96.293 E.0179
;WIDTH:0.607387
G1 X119.499 Y95.993 E.01508
;WIDTH:0.606326
G1 X119.694 Y95.721 E.01568
G1 X119.954 Y95.511 E.01566
;WIDTH:0.607808
G1 X120.259 Y95.375 E.01569
;WIDTH:0.614381
G1 X120.671 Y95.314 E.01979
G1 X130.654 Y95.314 E.47436
G1 X130.893 Y95.294 E.0114
;WIDTH:0.573286
G1 X131.131 Y95.273 E.01054
;WIDTH:0.53219
G1 X131.369 Y95.253 E.00972
;WIDTH:0.491095
G1 X131.607 Y95.232 E.0089
;WIDTH:0.449999
G1 X132.569 Y95.232 E.03256
G1 X132.153 Y96.08 E.03197
;WIDTH:0.487396
G1 X131.932 Y96.531 E.01856
;WIDTH:0.524792
G1 X131.711 Y96.981 E.02009
G1 X131.356 Y97.918 E.04015
;WIDTH:0.487312
G1 X131.036 Y98.867 E.03701
;WIDTH:0.450095
G1 X130.753 Y99.827 E.03389
;WIDTH:0.412883
G1 X130.505 Y100.796 E.03077
;WIDTH:0.376647
G1 X130.386 Y101.346 E.01562
;WIDTH:0.404609
G1 X130.347 Y101.408 E.0022
;WIDTH:0.45176
G1 X130.308 Y101.47 E.00249
;WIDTH:0.498911
G1 X130.269 Y101.532 E.00278
;WIDTH:0.546062
G1 X130.23 Y101.594 E.00306
;WIDTH:0.593213
G1 X130.192 Y101.656 E.00333
;WIDTH:0.640364
G1 X130.153 Y101.718 E.00364
G1 X130.14 Y101.646 E.00363
;WIDTH:0.593213
G1 X130.128 Y101.574 E.00334
;WIDTH:0.546062
G1 X130.115 Y101.501 E.0031
;WIDTH:0.498911
G1 X130.103 Y101.429 E.00277
;WIDTH:0.45176
G1 X130.09 Y101.357 E.00249
;WIDTH:0.404609
G1 X130.077 Y101.285 E.0022
;WIDTH:0.381631
G1 X130.198 Y100.627 E.01884
;WIDTH:0.417803
G1 X130.416 Y99.64 E.03151
;WIDTH:0.452795
G1 X130.66 Y98.698 E.03316
;WIDTH:0.488716
G1 X130.944 Y97.745 E.03686
;WIDTH:0.527033
G1 X131.273 Y96.775 E.04123
G1 X131.204 Y96.489 E.01184
;WIDTH:0.488516
G1 X131.135 Y96.202 E.01094
;WIDTH:0.491095
G1 X131.015 Y96.123 E.00535
;WIDTH:0.53219
G1 X130.895 Y96.044 E.00584
;WIDTH:0.573286
G1 X130.774 Y95.965 E.00637
;WIDTH:0.614381
G1 X130.654 Y95.886 E.00683
G1 X120.69 Y95.886 E.47346
G1 X120.58 Y95.904 E.0053
G1 X120.604 Y96.375 F12000
M204 P800
;TYPE:External perimeter
;WIDTH:0.449999
G1 F1665

G1 X120.46 Y96.435 E.00528
G1 X120.4 Y96.579 E.00528
G1 X120.4 Y97.028 E.0152
G1 X120.4 Y110.885 E.46904
G1 X120.4 Y111.335 E.01523
G1 X120.351 Y111.76 E.01448
G1 X120.196 Y112.201 E.01582
G1 X119.927 Y112.591 E.01604
G1 X119.558 Y112.9 E.01629
G1 X119.106 Y113.104 E.01679
G1 X118.85 Y113.144 E.00877
G1 X118.85 Y112.694 E.01523
G1 X118.85 Y97.117 E.52726
G1 X118.85 Y96.667 E.01523
G1 X118.903 Y96.227 E.015
G1 X119.051 Y95.806 E.01511
G1 X119.31 Y95.426 E.01557
G1 X119.658 Y95.126 E.01555
G1 X120.073 Y94.926 E.01559
G1 X120.639 Y94.825 E.01946
G1 X121.089 Y94.825 E.01523
G1 X132.798 Y94.825 E.39634
G1 X133.248 Y94.825 E.01523
G1 X132.963 Y95.354 E.02034


G1 X132.525 Y96.246 E.03364
G1 X132.124 Y97.147 E.03338
G1 X131.757 Y98.062 E.03337
G1 X131.425 Y98.99 E.03336
G1 X131.127 Y99.93 E.03338
G1 X130.866 Y100.881 E.03338
G1 X130.64 Y101.841 E.03338
G1 X130.451 Y102.808 E.03335
G1 X130.298 Y103.783 E.03341
G1 X130.182 Y104.762 E.03337
G1 X130.114 Y105.593 E.02822

;WIDTH:0.487697

G1 X130.09 Y105.688 E.00362

;WIDTH:0.525395

G1 X130.066 Y105.784 E.00397

;WIDTH:0.563093

G1 X130.041 Y105.879 E.00425

;WIDTH:0.60079

G1 X130.017 Y105.975 E.00459
G1 X129.998 Y106.729 E.03499

;WIDTH:0.574494

G1 X130.009 Y107.717 E.04367

;WIDTH:0.541694

G1 X130.058 Y108.722 E.04173

;WIDTH:0.509088

G1 X130.141 Y109.686 E.0375

;WIDTH:0.47828

G1 X130.262 Y110.665 E.03571

;WIDTH:0.447443

G1 X130.374 Y111.383 E.02444

;WIDTH:0.43402

G1 X129.988 Y111.383 E.01255
G1 X129.956 Y111.226 E.00521

;WIDTH:0.455822

G1 X129.83 Y110.543 E.02385

;WIDTH:0.486131

G1 X129.685 Y109.567 E.03636

;WIDTH:0.517952

G1 X129.574 Y108.568 E.0397

;WIDTH:0.549827

G1 X129.499 Y107.566 E.04235

;WIDTH:0.582584

G1 X129.461 Y106.563 E.04504

;WIDTH:0.60079

G1 X129.459 Y105.968 E.0276
G1 X129.439 Y105.865 E.00487

;WIDTH:0.563093

G1 X129.418 Y105.762 E.00455

;WIDTH:0.525395

G1 X129.397 Y105.659 E.00422

;WIDTH:0.487697

G1 X129.377 Y105.556 E.00388

;WIDTH:0.449999

G1 X129.395 Y104.559 E.03375
G1 X129.449 Y103.555 E.03403
G1 X129.54 Y102.553 E.03406
G1 X129.667 Y101.555 E.03405
G1 X129.83 Y100.563 E.03403
G1 X130.034 Y99.559 E.03468
G1 X130.264 Y98.599 E.03341
G1 X130.534 Y97.63 E.03405
G1 X130.834 Y96.684 E.03359
G1 X130.815 Y96.454 E.00781
G1 X130.654 Y96.375 E.00607
G1 X130.206 Y96.375 E.01516
G1 X121.114 Y96.375 E.30775
G1 X120.664 Y96.375 E.01523

M204 P1000
G1 X120.494 Y96.265 F12000
G1 E-.64 F2100
;WIPE_START
G1 F9600
G1 X120.46 Y96.435 E-.04419
G1 X120.4 Y96.579 E-.03242
G1 X120.4 Y96.98 E-.08339
;WIPE_END
G1 Z.6 F720
G1 X129.746 Y105.563 F12000
G1 Z.4 F720
G1 E.8 F1500
;TYPE:Perimeter
;WIDTH:0.40088
G1 F1665
G1 X129.767 Y105.146 E.01243
;WIDTH:0.426992
G1 X129.787 Y104.73 E.0133
;WIDTH:0.46165
G1 X129.829 Y104.231 E.01744
;WIDTH:0.496308
G1 X129.871 Y103.732 E.01888
;WIDTH:0.531508
G1 X129.931 Y103.234 E.02038
;WIDTH:0.566708
G1 X129.991 Y102.736 E.02185
;WIDTH:0.602401
G1 X130.07 Y102.24 E.02337
;WIDTH:0.638094
G1 X130.148 Y101.744 E.02485
;WIDTH:0.640364
G1 X130.153 Y101.718 E.00132
G1 E-.64 F2100
;WIPE_START
G1 F9600
G1 X130.148 Y101.744 E-.0055
G1 X130.07 Y102.24 E-.10434
G1 X130.032 Y102.478 E-.05016
;WIPE_END
G1 Z.6 F720
G1 X131.46 Y95.645 F12000
G1 Z.4 F720
G1 E.8 F1500
M204 P1500
;TYPE:Solid infill
;WIDTH:0.476079
G1 F1665
G1 X131.091 Y95.706 E.01347
G1 X131.434 Y95.972 E.01563
G1 X131.56 Y96.378 E.01531
G1 X131.96 Y95.611 E.03116
G1 X131.663 Y95.631 E.01072
M204 P1000
; stop printing object clip attachment.stl id:0 copy 0
M106 S255
;LAYER_CHANGE
;Z:0.6
;HEIGHT:0.2
;BEFORE_LAYER_CHANGE
G92 E0.0
;0.6


G1 E-.64 F2100
;WIPE_START
G1 F9600
G1 X131.96 Y95.611 E-.06186
G1 X131.811 Y95.917 E-.07073
G1 X131.748 Y96.033 E-.02741
;WIPE_END
G1 Z.6 F720
;AFTER_LAYER_CHANGE
;0.6
; printing object clip attachment.stl id:0 copy 0
G1 Z.8
G1 X116.964 Y99.811 F12000
G1 Z.6 F720
G1 E.8 F1500
M204 P800
;TYPE:External perimeter
;WIDTH:0.42146
G1 F1706

G1 X116.964 Y100.232 E.01325
G1 X116.964 Y114.768 E.45753
G1 X116.964 Y115.189 E.01325
G1 X116.586 Y115.189 E.0119
M73 P4 R11
G1 X116.586 Y114.768 E.01325
G1 X116.586 Y100.232 E.45753
G1 X116.586 Y99.811 E.01325
G1 X116.904 Y99.811 E.01001

M204 P1000
G1 X116.961 Y100.211 F12000
G1 E-.64 F2100
;WIPE_START
G1 F9600
G1 X116.907 Y100.581 E-.16
;WIPE_END
G1 Z.8 F720
G1 X120.521 Y95.913 F12000
G1 Z.6 F720
G1 E.8 F1500
;TYPE:Perimeter
;WIDTH:0.614381
G1 F1706

G1 X120.343 Y95.943 E.00858

;WIDTH:0.605447

G1 X120.115 Y96.094 E.01279
G1 X119.97 Y96.314 E.01232

;WIDTH:0.614381

G1 X119.911 Y96.669 E.0171
G1 X119.911 Y111.335 E.69689
G1 X119.877 Y111.694 E.01713

;WIDTH:0.593246

G1 X119.742 Y112.037 E.01687
G1 X119.548 Y112.299 E.01492
G1 X119.329 Y112.473 E.0128
G1 X119.329 Y111.953 E.0238

;WIDTH:0.614381

G1 X119.339 Y96.669 E.72625
G1 X119.387 Y96.284 E.01844

;WIDTH:0.607136

G1 X119.498 Y95.993 E.01461

;WIDTH:0.606371

G1 X119.692 Y95.725 E.0155

;WIDTH:0.605808

G1 X119.972 Y95.501 E.01678

;WIDTH:0.607902

G1 X120.258 Y95.375 E.01468

;WIDTH:0.614381

G1 X120.671 Y95.314 E.01984
G1 X130.654 Y95.314 E.47436
G1 X130.893 Y95.294 E.0114

;WIDTH:0.573286

G1 X131.131 Y95.273 E.01054

;WIDTH:0.53219

G1 X131.369 Y95.253 E.00972

;WIDTH:0.491095

G1 X131.607 Y95.232 E.0089

;WIDTH:0.449999

G1 X132.569 Y95.232 E.03256


G1 X132.153 Y96.08 E.03197

;WIDTH:0.487396

G1 X131.932 Y96.531 E.01856

;WIDTH:0.524793

G1 X131.711 Y96.981 E.02009
G1 X131.356 Y97.918 E.04015

;WIDTH:0.487312

G1 X131.036 Y98.867 E.03701

;WIDTH:0.450095

G1 X130.753 Y99.827 E.03389

;WIDTH:0.413193
G1 X130.505 Y100.796 E.0308
;WIDTH:0.376647
G1 X130.386 Y101.346 E.01562
;WIDTH:0.404607
G1 X130.347 Y101.408 E.0022
;WIDTH:0.451758
G1 X130.308 Y101.47 E.00249
;WIDTH:0.498909
G1 X130.269 Y101.532 E.00278
;WIDTH:0.54606
G1 X130.23 Y101.594 E.00306
;WIDTH:0.593211

G1 X130.192 Y101.656 E.00333

;WIDTH:0.640362

G1 X130.153 Y101.718 E.00364
