; generated by PrusaSlicer 2.6.1+win64 on 2024-04-06 at 18:17:48 UTC


;
;

;
;

;
;
; 

; external perimeters extrusion width = 0.45mm
; perimeters extrusion width = 0.45mm
; infill extrusion width = 0.45mm
; solid infill extrusion width = 0.45mm
; top infill extrusion width = 0.42mm
; first layer extrusion width = 0.50mm

M73 P0 R11
M201 X2500 Y2500 Z200 E2500 ; sets maximum accelerations, mm/sec^2
M203 X200 Y200 Z40 E100 ; sets maximum feedrates, mm / sec
M204 P2000 R1200 T2000 ; sets acceleration (P, T) and retract acceleration (R), mm/sec^2
M205 X8.00 Y8.00 Z2.00 E10.00 ; sets the jerk limits, mm/sec
M205 S0 T0 ; sets the minimum extruding and travel feed rate, mm/sec
;TYPE:Custom
M17 ; enable steppers
M862.3 P "MK4" ; printer model check
M862.1 P0.4 ; nozzle diameter check
M555 X113.875 Y89.1028 W32 H27.7944

G90 ; use absolute coordinates
M83 ; extruder relative mode

M140 S60 ; set bed temp

M104 S170 ; set extruder temp for bed leveling
M109 R170 ; wait for temp


M84 E ; turn off E motor

G28 ; home all without mesh bed level

G1 X42 Y-4 Z5 F4800

M302 S160 ; lower cold extrusion limit to 160C


G1 E-2 F2400 ; retraction


M84 E ; turn off E motor

G29 P9 X10 Y-4 W32 H4

M106 S100

G0 Z40 F10000

M190 S60 ; wait for bed temp

M107

;
; MBL
;
M84 E ; turn off E motor
G29 P1 ; invalidate mbl & probe print area
G29 P1 X0 Y0 W50 H20 C ; probe near purge place
G29 P3.2 ; interpolate mbl probes
G29 P3.13 ; extrapolate mbl outside probe area
G29 A ; activate mbl

; prepare for purge
M104 S215
G0 X0 Y-4 Z15 F4800 ; move away and ready for the purge
M109 S215

G92 E0
M569 S0 E ; set spreadcycle mode for extruder

;
; Extrude purge line
;
G92 E0 ; reset extruder position
G1 E2 F2400 ; deretraction after the initial one before nozzle cleaning
G0 E7 X15 Z0.2 F500 ; purge
G0 X25 E4 F500 ; purge
G0 X35 E4 F650 ; purge
G0 X45 E4 F800 ; purge
G0 X48 Z0.05 F8000 ; wipe, move close to the bed
G0 X51 Z0.2 F8000 ; wipe, move quickly away from the bed

G92 E0
M221 S100 ; set flow to 100%
G21 ; set units to millimeters
G90 ; use absolute coordinates
M83 ; use relative distances for extrusion
M900 K0.05 ; Filament gcode



M142 S36 ; set heatbreak target temp
M107
;LAYER_CHANGE
;Z:0.2
;HEIGHT:0.2
;BEFORE_LAYER_CHANGE
G92 E0.0
;0.2


G1 E-.8 F2100
G1 Z.2 F720
;AFTER_LAYER_CHANGE
;0.2
; printing object Hook Attachment v2.stl id:0 copy 0
G1 Z.4
G1 X114.464 Y101.308 F12000
G1 Z.2 F720
M73 P1 R11
G1 E.8 F1500
M204 P600
;TYPE:External perimeter
;WIDTH:0.42146
G1 F1200
G1 X114.464 Y116.686 E.48403
G1 X114.086 Y116.686 E.0119
G1 X114.086 Y101.308 E.48403
G1 X114.404 Y101.308 E.01001
M204 P1000
G1 X114.461 Y101.708 F12000
G1 E-.64 F2100
;WIPE_START
G1 F9600
G1 X114.407 Y102.078 E-.16
;WIPE_END
G1 Z.4 F720
G1 X116.952 Y113.706 F12000
G1 Z.2 F720
G1 E.8 F1500
M204 P600
;TYPE:Perimeter
;WIDTH:0.339548
G1 F1200
G1 X116.952 Y113.482 E.00552
;WIDTH:0.364381
G1 X116.966 Y103.059 E.2786
;WIDTH:0.363818
G1 X116.995 Y102.38 E.01813
;WIDTH:0.365859
G1 X117.048 Y101.871 E.01374
;WIDTH:0.366486
G1 X117.151 Y101.268 E.01646
;WIDTH:0.366885
G1 X117.293 Y100.672 E.0165
G1 X117.475 Y100.088 E.01648
G1 X117.695 Y99.517 E.01648
;WIDTH:0.366657
G1 X117.953 Y98.962 E.01648
;WIDTH:0.366145
G1 X118.247 Y98.425 E.01645
;WIDTH:0.365347
G1 X118.576 Y97.908 E.01643
;WIDTH:0.364264
G1 X118.986 Y97.361 E.01827
;WIDTH:0.363213
G1 X119.394 Y96.887 E.01666
;WIDTH:0.366269
G1 X119.762 Y96.51 E.01416
;WIDTH:0.366725
G1 X120.216 Y96.099 E.01649
;WIDTH:0.366896
G1 X120.697 Y95.721 E.01648
G1 X121.201 Y95.374 E.01648
;WIDTH:0.366782
G1 X121.728 Y95.063 E.01648
;WIDTH:0.366383
G1 X122.274 Y94.787 E.01645
;WIDTH:0.365699
G1 X122.838 Y94.547 E.01645
;WIDTH:0.364732
G1 X123.458 Y94.335 E.01753
;WIDTH:0.363599
G1 X124.109 Y94.164 E.01795
;WIDTH:0.366007
G1 X124.607 Y94.065 E.01364
;WIDTH:0.366577
G1 X125.214 Y93.984 E.01648
;WIDTH:0.366862
G1 X125.824 Y93.943 E.01647
G1 X126.436 Y93.944 E.01648
G1 X127.047 Y93.985 E.01649
;WIDTH:0.366577
G1 X127.654 Y94.066 E.01648
;WIDTH:0.366006
G1 X128.254 Y94.188 E.01645
;WIDTH:0.365152
G1 X128.858 Y94.355 E.01679
;WIDTH:0.364031
G1 X129.502 Y94.584 E.01825
;WIDTH:0.363036
G1 X130.075 Y94.835 E.01665
;WIDTH:0.366381
G1 X130.531 Y95.068 E.01377
;WIDTH:0.366779
G1 X131.058 Y95.38 E.01649
;WIDTH:0.366895
G1 X131.562 Y95.727 E.01648
G1 X132.042 Y96.106 E.01648
;WIDTH:0.366725
G1 X132.496 Y96.517 E.01649
;WIDTH:0.366266
G1 X132.922 Y96.957 E.01647
;WIDTH:0.365527
G1 X133.317 Y97.425 E.01643
;WIDTH:0.364502
G1 X133.711 Y97.966 E.0179
;WIDTH:0.363398
G1 X134.044 Y98.496 E.01668
;WIDTH:0.366142
G1 X134.302 Y98.971 E.01453
;WIDTH:0.366656
G1 X134.559 Y99.527 E.01649
;WIDTH:0.366827
G1 X134.779 Y100.098 E.01648
G1 X134.96 Y100.683 E.01649
G1 X135.102 Y101.278 E.01648
;WIDTH:0.366487
G1 X135.203 Y101.882 E.01648
;WIDTH:0.365858
G1 X135.265 Y102.491 E.01644
;WIDTH:0.364948
G1 X135.286 Y103.114 E.01669
;WIDTH:0.36438
G1 X135.286 Y107.005 E.104
G1 X135.264 Y107.128 E.00334
G1 X135.17 Y107.236 E.00383
G1 X135.03 Y107.203 E.00384
G1 X134.964 Y107.053 E.00438
G1 X134.964 Y103.07 E.10646
;WIDTH:0.363817
G1 X134.937 Y102.414 E.01752
;WIDTH:0.365858
G1 X134.882 Y101.916 E.01345
;WIDTH:0.366487
G1 X134.783 Y101.335 E.01586
;WIDTH:0.366883
G1 X134.646 Y100.762 E.01587
M73 P2 R11
G1 X134.471 Y100.199 E.01588
G1 X134.26 Y99.65 E.01584
;WIDTH:0.366656
G1 X134.013 Y99.115 E.01586
;WIDTH:0.366142
G1 X133.731 Y98.597 E.01585
;WIDTH:0.365345
G1 X133.415 Y98.099 E.01581
;WIDTH:0.364263
G1 X133.021 Y97.569 E.01765
;WIDTH:0.363211
G1 X132.62 Y97.103 E.01637
;WIDTH:0.366266
G1 X132.266 Y96.744 E.01356
;WIDTH:0.366725
G1 X131.828 Y96.349 E.01588
;WIDTH:0.366895
G1 X131.366 Y95.984 E.01586
G1 X130.88 Y95.651 E.01587
;WIDTH:0.366779
G1 X130.373 Y95.35 E.01588
;WIDTH:0.366381
G1 X129.848 Y95.083 E.01584
;WIDTH:0.365698
G1 X129.306 Y94.851 E.01582
;WIDTH:0.364732
G1 X128.708 Y94.644 E.01693
;WIDTH:0.363598
G1 X128.114 Y94.485 E.0164
;WIDTH:0.366006
G1 X127.592 Y94.383 E.01429
;WIDTH:0.366577
G1 X127.007 Y94.306 E.01588
;WIDTH:0.366862
G1 X126.42 Y94.267 E.01585
G1 X125.83 Y94.267 E.01589
G1 X125.243 Y94.306 E.01585
;WIDTH:0.366577
G1 X124.658 Y94.383 E.01588
;WIDTH:0.366007
G1 X124.081 Y94.499 E.01581
;WIDTH:0.365151
G1 X123.498 Y94.658 E.01619
;WIDTH:0.364032
G1 X122.88 Y94.876 E.0175
;WIDTH:0.365699
G1 X122.402 Y95.083 E.01398
;WIDTH:0.366383
G1 X121.877 Y95.35 E.01584
;WIDTH:0.366782
G1 X121.37 Y95.651 E.01588
;WIDTH:0.366896
G1 X120.884 Y95.984 E.01587
G1 X120.422 Y96.349 E.01586
;WIDTH:0.366725
G1 X119.984 Y96.744 E.01588
;WIDTH:0.366269
G1 X119.574 Y97.166 E.01582
;WIDTH:0.36553
G1 X119.192 Y97.615 E.01581
;WIDTH:0.364504
G1 X118.809 Y98.137 E.01731
;WIDTH:0.3634
G1 X118.482 Y98.658 E.01639
;WIDTH:0.366145
G1 X118.237 Y99.115 E.01394
;WIDTH:0.366657
G1 X117.99 Y99.65 E.01586
;WIDTH:0.366827
G1 X117.779 Y100.199 E.01584
G1 X117.604 Y100.762 E.01588
G1 X117.467 Y101.335 E.01587
;WIDTH:0.366486
G1 X117.368 Y101.916 E.01586
;WIDTH:0.365859
G1 X117.307 Y102.502 E.01582
;WIDTH:0.364948
G1 X117.286 Y103.114 E.0164
;WIDTH:0.364381
G1 X117.286 Y112.834 E.25981
G1 X117.247 Y113.205 E.00997
;WIDTH:0.339548
G1 X117.111 Y113.517 E.00839
G1 X116.991 Y113.66 E.0046
M204 P1000
G1 X116.575 Y114.357 F12000
M204 P600
;TYPE:External perimeter
;WIDTH:0.499999
G1 F1200
G1 X116.575 Y103.114 E.4273
G1 X116.608 Y102.341 E.02941
G1 X116.683 Y101.694 E.02475
G1 X116.771 Y101.177 E.01993
G1 X116.92 Y100.557 E.02423
G1 X117.11 Y99.947 E.02428
G1 X117.341 Y99.352 E.02426
G1 X117.611 Y98.774 E.02425
G1 X117.918 Y98.215 E.02424
G1 X118.263 Y97.677 E.02429
G1 X118.689 Y97.11 E.02695
G1 X119.146 Y96.584 E.02648
G1 X119.5 Y96.22 E.0193
G1 X119.974 Y95.793 E.02425
G1 X120.475 Y95.399 E.02422
G1 X121.002 Y95.038 E.02428
G1 X121.552 Y94.714 E.02426
G1 X122.122 Y94.428 E.02424
G1 X122.71 Y94.18 E.02425
G1 X123.355 Y93.96 E.0259
G1 X124.042 Y93.781 E.02698
G1 X124.682 Y93.661 E.02475
G1 X125.188 Y93.594 E.0194
G1 X125.824 Y93.553 E.02422
G1 X126.463 Y93.554 E.02429
G1 X127.099 Y93.598 E.02423
G1 X127.731 Y93.684 E.02424
G1 X128.357 Y93.812 E.02428
G1 X128.986 Y93.987 E.02481
G1 X129.654 Y94.226 E.02696
G1 X130.25 Y94.488 E.02474
G1 X130.73 Y94.732 E.02046
G1 X131.279 Y95.058 E.02427
G1 X131.804 Y95.42 E.02424
G1 X132.304 Y95.817 E.02426
G1 X132.777 Y96.246 E.02427
G1 X133.219 Y96.705 E.02422
G1 X133.631 Y97.194 E.0243
G1 X134.039 Y97.757 E.02643
G1 X134.413 Y98.36 E.02697
G1 X134.656 Y98.807 E.01934
G1 X134.924 Y99.386 E.02425
G1 X135.152 Y99.982 E.02425
G1 X135.34 Y100.592 E.02426
G1 X135.486 Y101.213 E.02425
G1 X135.591 Y101.843 E.02427
G1 X135.654 Y102.478 E.02425
G1 X135.675 Y103.114 E.02419
G1 X135.675 Y107.005 E.14788
G1 X135.645 Y107.206 E.00772
G1 X135.555 Y107.41 E.00847
G1 X135.392 Y107.557 E.00834
G1 X135.181 Y107.626 E.00844
G1 X134.961 Y107.603 E.00841
G1 X134.769 Y107.492 E.00843
G1 X134.639 Y107.314 E.00838
G1 X134.575 Y107.074 E.00944
G1 X134.575 Y103.114 E.1505
G1 X134.551 Y102.46 E.02487
G1 X134.495 Y101.96 E.01912
G1 X134.4 Y101.408 E.02129
G1 X134.269 Y100.863 E.0213
G1 X134.103 Y100.328 E.02129
G1 X133.902 Y99.806 E.02126
G1 X133.668 Y99.297 E.02129
G1 X133.401 Y98.805 E.02128
G1 X133.102 Y98.33 E.02133
G1 X132.727 Y97.824 E.02394
G1 X132.381 Y97.421 E.02019
G1 X131.99 Y97.02 E.02129
G1 X131.573 Y96.645 E.02131
G1 X131.134 Y96.299 E.02124
M73 P2 R10
G1 X130.672 Y95.981 E.02132
G1 X130.191 Y95.695 E.02127
G1 X129.692 Y95.44 E.0213
G1 X129.178 Y95.219 E.02126
G1 X128.609 Y95.02 E.02291
G1 X128.014 Y94.861 E.02341
G1 X127.519 Y94.767 E.01915
G1 X126.964 Y94.694 E.02128
G1 X126.405 Y94.657 E.02129
G1 X125.845 Y94.657 E.02128
G1 X125.286 Y94.694 E.02129
G1 X124.731 Y94.767 E.02128
G1 X124.181 Y94.876 E.02131
G1 X123.626 Y95.025 E.02184
G1 X123.032 Y95.234 E.02393
G1 X122.558 Y95.44 E.01964
G1 X122.059 Y95.695 E.0213
G1 X121.578 Y95.981 E.02127
G1 X121.116 Y96.299 E.02132
G1 X120.677 Y96.645 E.02124
G1 X120.26 Y97.02 E.02131
G1 X119.869 Y97.421 E.02129
G1 X119.505 Y97.847 E.0213
G1 X119.139 Y98.343 E.02343
G1 X118.849 Y98.805 E.02073
G1 X118.582 Y99.297 E.02128
G1 X118.348 Y99.806 E.02129
G1 X118.147 Y100.328 E.02126
G1 X117.981 Y100.863 E.02129
G1 X117.85 Y101.408 E.0213
G1 X117.755 Y101.96 E.02129
G1 X117.696 Y102.517 E.02129
G1 X117.675 Y103.093 E.02191
G1 X117.675 Y112.834 E.37022
G1 X117.62 Y113.258 E.01625
G1 X117.454 Y113.673 E.01699
G1 X117.17 Y114.03 E.01734
G1 X116.787 Y114.292 E.01764
G1 X116.632 Y114.339 E.00616
M204 P1000
G1 X116.714 Y113.982 F12000
; stop printing object Hook Attachment v2.stl id:0 copy 0
M106 S127.5
;LAYER_CHANGE
;Z:0.4
;HEIGHT:0.2
;BEFORE_LAYER_CHANGE
G92 E0.0
;0.4


G1 E-.64 F2100
;WIPE_START
G1 F9600
G1 X116.628 Y113.569 E-.16
;WIPE_END
G1 Z.4 F720
;AFTER_LAYER_CHANGE
;0.4
M104 S210 ; set temperature
; printing object Hook Attachment v2.stl id:0 copy 0
G1 Z.6
G1 X114.464 Y101.308 F12000
G1 Z.4 F720
G1 E.8 F1500
M204 P800
;WIDTH:0.42146
G1 F1684

G1 X114.464 Y101.729 E.01325
G1 X114.464 Y116.265 E.45753
G1 X114.464 Y116.686 E.01325
M73 P3 R10
G1 X114.086 Y116.686 E.0119
G1 X114.086 Y116.265 E.01325
G1 X114.086 Y101.729 E.45753
G1 X114.086 Y101.308 E.01325
G1 X114.404 Y101.308 E.01001

M204 P1000
G1 X114.461 Y101.708 F12000
G1 E-.64 F2100
;WIPE_START
G1 F9600
G1 X114.407 Y102.078 E-.16
;WIPE_END
G1 Z.6 F720
G1 X116.827 Y113.966 F12000
G1 Z.4 F720
G1 E.8 F1500
;TYPE:Perimeter
;WIDTH:0.588875
G1 F1684
G1 X116.827 Y113.482 E.02197
;WIDTH:0.614381
G1 X116.841 Y103.051 E.49565
;WIDTH:0.613825
G1 X116.872 Y102.359 E.03288
;WIDTH:0.612931
G1 X116.941 Y101.745 E.02928
;WIDTH:0.616487
G1 X117.029 Y101.239 E.02449
;WIDTH:0.616827
G1 X117.174 Y100.635 E.02964
G1 X117.358 Y100.043 E.02958
G1 X117.582 Y99.464 E.02963
;WIDTH:0.616657
G1 X117.843 Y98.901 E.0296
;WIDTH:0.616145
G1 X118.141 Y98.357 E.02956
;WIDTH:0.615349
G1 X118.48 Y97.828 E.02991
;WIDTH:0.614267
G1 X118.895 Y97.274 E.03288
;WIDTH:0.613264
G1 X119.299 Y96.805 E.02936
;WIDTH:0.616269
G1 X119.678 Y96.417 E.02586
;WIDTH:0.617025
G1 X120.139 Y96.002 E.02961
G1 X120.626 Y95.617 E.02964
;WIDTH:0.616897
G1 X121.138 Y95.267 E.0296
;WIDTH:0.616783
G1 X121.672 Y94.951 E.02961
;WIDTH:0.616384
G1 X122.226 Y94.671 E.0296
;WIDTH:0.615701
G1 X122.797 Y94.429 E.02954
;WIDTH:0.614733
G1 X123.432 Y94.212 E.03191
;WIDTH:0.613619
G1 X124.089 Y94.04 E.03223
;WIDTH:0.616006
G1 X124.59 Y93.941 E.02434
;WIDTH:0.616577
G1 X125.205 Y93.859 E.02959
;WIDTH:0.616852
G1 X125.824 Y93.818 E.02961
G1 X126.457 Y93.82 E.03021
;WIDTH:0.616685
G1 X127.064 Y93.861 E.02903
;WIDTH:0.616577
G1 X127.679 Y93.944 E.0296
;WIDTH:0.616007
G1 X128.287 Y94.068 E.02957
;WIDTH:0.615152
G1 X128.906 Y94.239 E.03056
;WIDTH:0.614005
G1 X129.558 Y94.472 E.03288
;WIDTH:0.613091
G1 X130.125 Y94.72 E.02934
;WIDTH:0.616382
G1 X130.595 Y94.96 E.02516
;WIDTH:0.616781
G1 X131.129 Y95.277 E.02963
;WIDTH:0.616895
G1 X131.64 Y95.629 E.02961
G1 X132.126 Y96.014 E.02959
;WIDTH:0.616725
G1 X132.586 Y96.43 E.02959
;WIDTH:0.616269
G1 X133.017 Y96.876 E.02957
;WIDTH:0.615529
G1 X133.418 Y97.35 E.02956
;WIDTH:0.614502
G1 X133.821 Y97.905 E.0326
;WIDTH:0.613445
G1 X134.15 Y98.429 E.02935
;WIDTH:0.616145
G1 X134.416 Y98.919 E.02657
;WIDTH:0.616656
G1 X134.676 Y99.482 E.02958
;WIDTH:0.616885
G1 X134.898 Y100.061 E.02959
G1 X135.081 Y100.654 E.02962
G1 X135.225 Y101.257 E.02959
;WIDTH:0.616486
G1 X135.328 Y101.869 E.0296
;WIDTH:0.615859
G1 X135.39 Y102.487 E.02959
;WIDTH:0.614947
G1 X135.411 Y103.114 E.02984
;WIDTH:0.614381
G1 X135.411 Y106.993 E.18432
G1 X135.394 Y107.103 E.00529
G1 X135.306 Y107.298 E.01017
G1 X135.101 Y107.365 E.01025
G1 X134.907 Y107.257 E.01055
G1 X134.839 Y107.06 E.0099
G1 X134.839 Y103.071 E.18955
;WIDTH:0.613826
G1 X134.813 Y102.428 E.03055
;WIDTH:0.615859
G1 X134.758 Y101.93 E.02387
;WIDTH:0.616486
G1 X134.66 Y101.358 E.02768
;WIDTH:0.616827
G1 X134.525 Y100.795 E.02763
G1 X134.353 Y100.241 E.02768
G1 X134.145 Y99.7 E.02766
;WIDTH:0.616656
G1 X133.902 Y99.173 E.02769
;WIDTH:0.616145
G1 X133.625 Y98.664 E.02762
;WIDTH:0.615346
G1 X133.31 Y98.167 E.02801
;WIDTH:0.614266
G1 X132.921 Y97.644 E.03097
;WIDTH:0.613263
G1 X132.53 Y97.19 E.02841
;WIDTH:0.616269
G1 X132.177 Y96.832 E.02397
;WIDTH:0.616725
G1 X131.747 Y96.444 E.02763
;WIDTH:0.616895
G1 X131.291 Y96.085 E.0277
G1 X130.813 Y95.757 E.02767
;WIDTH:0.616781
G1 X130.315 Y95.46 E.02767
;WIDTH:0.616382
G1 X129.798 Y95.198 E.02764
;WIDTH:0.6157
G1 X129.276 Y94.973 E.02707
;WIDTH:0.614342
G1 X128.669 Y94.763 E.03052
;WIDTH:0.613641
G1 X128.089 Y94.608 E.02849
;WIDTH:0.616007
G1 X127.568 Y94.506 E.0253
;WIDTH:0.616577
G1 X126.993 Y94.43 E.02767
;WIDTH:0.616685
G1 X126.427 Y94.393 E.02706
;WIDTH:0.616852
G1 X125.834 Y94.392 E.0283
G1 X125.257 Y94.43 E.0276
;WIDTH:0.616577
G1 X124.682 Y94.506 E.02767
;WIDTH:0.616006
G1 X124.113 Y94.62 E.02765
;WIDTH:0.615152
G1 X123.532 Y94.778 E.02865
;WIDTH:0.614041
G1 X122.924 Y94.993 E.03063
;WIDTH:0.615701
G1 X122.452 Y95.198 E.02451
;WIDTH:0.616384
G1 X121.935 Y95.46 E.02764
;WIDTH:0.616783
G1 X121.437 Y95.757 E.02767
;WIDTH:0.616897
G1 X120.959 Y96.085 E.02767
;WIDTH:0.617025
G1 X120.504 Y96.444 E.02767
G1 X120.073 Y96.832 E.02768
;WIDTH:0.616269
G1 X119.676 Y97.239 E.02711
;WIDTH:0.61518
G1 X119.292 Y97.69 E.02819
;WIDTH:0.614505
G1 X118.911 Y98.21 E.03064
;WIDTH:0.613447
G1 X118.592 Y98.718 E.02846
;WIDTH:0.616145
G1 X118.348 Y99.173 E.02461
;WIDTH:0.616657
G1 X118.105 Y99.7 E.02769
;WIDTH:0.616884
G1 X117.897 Y100.241 E.02766
G1 X117.725 Y100.795 E.02768
G1 X117.59 Y101.358 E.02763
;WIDTH:0.616487
G1 X117.494 Y101.918 E.0271
;WIDTH:0.615529
G1 X117.432 Y102.507 E.0282
;WIDTH:0.614947
G1 X117.411 Y103.114 E.02889
;WIDTH:0.614381
G1 X117.411 Y112.827 E.46153
G1 X117.37 Y113.222 E.01887
;WIDTH:0.588875
G1 X117.224 Y113.568 E.01705
G1 X116.979 Y113.864 E.01744
G1 X116.876 Y113.932 E.0056
G1 X116.35 Y114.656 F12000
M204 P800
;TYPE:External perimeter
;WIDTH:0.449999
G1 F1684

G1 X116.35 Y114.206 E.01523
G1 X116.35 Y103.564 E.36022
G1 X116.35 Y103.114 E.01523
G1 X116.386 Y102.31 E.02724
G1 X116.459 Y101.664 E.02201
G1 X116.552 Y101.125 E.01851
G1 X116.705 Y100.49 E.02211
G1 X116.9 Y99.867 E.0221
G1 X117.137 Y99.258 E.02212
G1 X117.413 Y98.666 E.02211
